;FLAVOR:Marlin
;TIME:1803
;Filament used: 0.744529m
;Layer height: 0.12
;MINX:124.705
;MINY:130.383
;MINZ:0.144
;MAXX:175.291
;MAXY:189.795
;MAXZ:6.614
;Generated with Cura_SteamEngine 4.6.1
M140 S75
M105
M190 S75
M104 S235
M105
M109 S235
M82 ;absolute extrusion mode
M201 X500.00 Y500.00 Z100.00 E5000.00 ;Setup machine max acceleration
M203 X500.00 Y500.00 Z10.00 E50.00 ;Setup machine max feedrate
M204 P500.00 R1000.00 T500.00 ;Setup Print/Retract/Travel acceleration
M205 X8.00 Y8.00 Z0.40 E5.00 ;Setup Jerk
M220 S100 ;Reset Feedrate
M221 S100 ;Reset Flowrate

G28 ;Home

G92 E0 ;Reset Extruder
G1 Z2.0 F3000 ;Move Z Axis up
G1 X10.1 Y20 Z0.28 F5000.0 ;Move to start position
G1 X10.1 Y200.0 Z0.28 F1500.0 E15 ;Draw the first line
G1 X10.4 Y200.0 Z0.28 F5000.0 ;Move to side a little
G1 X10.4 Y20 Z0.28 F1500.0 E30 ;Draw the second line
G92 E0 ;Reset Extruder
G1 Z2.0 F3000 ;Move Z Axis up

G92 E0
G92 E0
G1 F2700 E-5
;LAYER_COUNT:50
;LAYER:-5
M107
G0 F9000 X131.726 Y136.276 Z0.144
;TYPE:SUPPORT-INTERFACE
G1 F2700 E0
G1 F1125 X131.931 Y136.09 E0.01326
G1 X132.971 Y135.216 E0.07832
G1 X133.194 Y135.045 E0.09178
G1 X134.317 Y134.263 E0.15732
G1 X134.659 Y134.049 E0.17664
G1 X135.633 Y133.486 E0.23053
G1 X135.942 Y133.325 E0.24721
G1 X137.14 Y132.76 E0.31065
G1 X137.485 Y132.618 E0.32852
G1 X138.711 Y132.17 E0.39104
G1 X138.964 Y132.09 E0.40375
G1 X140.201 Y131.754 E0.46514
G1 X140.595 Y131.667 E0.48446
G1 X141.925 Y131.431 E0.54916
G1 X142.22 Y131.395 E0.56339
G1 X143.514 Y131.282 E0.6256
G1 X143.896 Y131.267 E0.64391
G1 X145.124 Y131.266 E0.70273
G1 X145.469 Y131.281 E0.71927
G1 X146.754 Y131.39 E0.78103
G1 X147.091 Y131.435 E0.79732
G1 X148.342 Y131.652 E0.85813
G1 X148.697 Y131.731 E0.87555
G1 X149.997 Y132.078 E0.93999
G1 X150.331 Y132.185 E0.95679
G1 X151.511 Y132.614 E1.01692
G1 X151.685 Y132.684 E1.0259
G1 X151.836 Y132.751 E1.03382
G1 X153.098 Y133.34 E1.10052
G1 X153.89 Y133.755 E1.14334
G1 X153.89 Y133.715 E1.14526
G1 X153.907 Y133.723 E1.14616
G1 X154.558 Y133.926 E1.17882
G1 X155.23 Y134.046 E1.21151
G1 X155.826 Y134.079 E1.2401
G1 X159.53 Y134.079 E1.4175
G1 X160.521 Y134.115 E1.465
G1 X160.671 Y134.126 E1.4722
G1 X161.731 Y134.247 E1.5233
G1 X162.618 Y134.41 E1.56649
G1 X162.774 Y134.445 E1.57415
G1 X163.661 Y134.677 E1.61806
G1 X163.801 Y134.719 E1.62506
G1 X164.657 Y135.011 E1.66838
G1 X164.823 Y135.074 E1.67688
G1 X165.649 Y135.424 E1.71985
G1 X165.787 Y135.489 E1.72716
G1 X166.743 Y135.985 E1.77874
G1 X167.493 Y136.442 E1.8208
G1 X167.657 Y136.551 E1.83023
G1 X168.375 Y137.064 E1.8725
G1 X168.516 Y137.174 E1.88106
G1 X169.217 Y137.756 E1.9247
G1 X169.327 Y137.854 E1.93176
G1 X169.992 Y138.49 E1.97583
G1 X170.638 Y139.186 E2.02131
G1 X170.757 Y139.325 E2.03007
G1 X171.311 Y140.016 E2.07249
G1 X171.415 Y140.155 E2.08081
G1 X171.908 Y140.87 E2.1224
G1 X172.024 Y141.054 E2.13282
G1 X172.467 Y141.81 E2.17479
G1 X172.544 Y141.952 E2.18252
G1 X172.947 Y142.771 E2.22624
G1 X173.003 Y142.897 E2.23284
G1 X173.345 Y143.742 E2.2765
G1 X173.404 Y143.907 E2.2849
G1 X173.676 Y144.754 E2.3275
G1 X173.722 Y144.916 E2.33557
G1 X173.934 Y145.79 E2.37864
G1 X173.967 Y145.948 E2.38637
G1 X174.115 Y146.84 E2.42968
G1 X174.139 Y147.026 E2.43866
G1 X174.221 Y147.91 E2.48118
G1 X174.229 Y148.062 E2.48847
G1 X174.25 Y148.795 E2.52359
G1 X174.25 Y151.19 E2.6383
G1 X174.214 Y152.196 E2.68651
G1 X174.204 Y152.331 E2.693
G1 X174.102 Y153.248 E2.73719
G1 X174.077 Y153.423 E2.74565
G1 X173.915 Y154.301 E2.78842
G1 X173.885 Y154.435 E2.79499
G1 X173.65 Y155.334 E2.8395
G1 X173.607 Y155.477 E2.84665
G1 X173.315 Y156.334 E2.89001
G1 X173.252 Y156.5 E2.89851
G1 X172.912 Y157.302 E2.94024
G1 X172.8 Y157.535 E2.95262
G1 X172.531 Y158.147 E2.98463
G1 X172.337 Y158.803 E3.0174
G1 X172.228 Y159.477 E3.0501
G1 X172.204 Y160.158 E3.08274
G1 X172.267 Y160.839 E3.11549
G1 X172.416 Y161.51 E3.14841
G1 X172.75 Y162.373 E3.19273
G1 X173.003 Y162.897 E3.2206
G1 X173.345 Y163.742 E3.26426
G1 X173.404 Y163.907 E3.27265
G1 X173.676 Y164.754 E3.31526
G1 X173.722 Y164.916 E3.32333
G1 X173.934 Y165.79 E3.3664
G1 X173.967 Y165.948 E3.37413
G1 X174.115 Y166.84 E3.41744
G1 X174.139 Y167.026 E3.42642
G1 X174.221 Y167.91 E3.46894
G1 X174.229 Y168.062 E3.47623
G1 X174.25 Y168.795 E3.51135
G1 X174.25 Y171.19 E3.62606
G1 X174.214 Y172.196 E3.67427
G1 X174.204 Y172.331 E3.68075
G1 X174.102 Y173.248 E3.72494
G1 X174.078 Y173.416 E3.73307
G1 X173.915 Y174.301 E3.77617
G1 X173.885 Y174.435 E3.78275
G1 X173.65 Y175.334 E3.82725
G1 X173.607 Y175.477 E3.8344
G1 X173.315 Y176.334 E3.87777
G1 X173.252 Y176.5 E3.88627
G1 X172.911 Y177.303 E3.92806
G1 X172.83 Y177.478 E3.93729
G1 X172.414 Y178.286 E3.98082
G1 X171.874 Y179.182 E4.03092
G1 X171.774 Y179.333 E4.0396
G1 X171.263 Y180.047 E4.08165
G1 X171.15 Y180.195 E4.09057
G1 X170.477 Y180.995 E4.14064
G1 X169.838 Y181.663 E4.18491
G1 X169.142 Y182.309 E4.23039
G1 X169.003 Y182.428 E4.23916
G1 X168.312 Y182.982 E4.28157
G1 X168.173 Y183.086 E4.28989
G1 X167.458 Y183.579 E4.33149
G1 X167.274 Y183.695 E4.3419
G1 X166.518 Y184.138 E4.38387
G1 X166.376 Y184.215 E4.39161
G1 X165.431 Y184.674 E4.44192
G1 X164.576 Y185.019 E4.48608
G1 X164.413 Y185.077 E4.49437
G1 X163.57 Y185.348 E4.53678
G1 X163.406 Y185.394 E4.54494
G1 X162.534 Y185.606 E4.58792
G1 X162.372 Y185.639 E4.59583
G1 X161.479 Y185.787 E4.63919
G1 X161.302 Y185.81 E4.64774
G1 X160.408 Y185.893 E4.69074
G1 X160.266 Y185.9 E4.69755
G1 X159.521 Y185.921 E4.73324
G1 X155.823 Y185.92 E4.91036
G1 X155.154 Y185.962 E4.94246
G1 X154.485 Y186.091 E4.97509
G1 X153.836 Y186.303 E5.00779
G1 X153.695 Y186.369 E5.01525
G1 X153.686 Y186.351 E5.01621
G1 X152.946 Y186.732 E5.05608
G1 X151.815 Y187.257 E5.1158
G1 X151.441 Y187.408 E5.13512
G1 X150.392 Y187.794 E5.18865
G1 X150.031 Y187.907 E5.20677
G1 X148.677 Y188.273 E5.27394
G1 X148.331 Y188.348 E5.2909
G1 X147.164 Y188.556 E5.34767
G1 X146.877 Y188.593 E5.36153
G1 X145.535 Y188.716 E5.42608
G1 X145.164 Y188.731 E5.44386
G1 X143.888 Y188.735 E5.50497
G1 X143.5 Y188.716 E5.52358
G1 X142.112 Y188.594 E5.59031
G1 X141.799 Y188.55 E5.60545
G1 X140.526 Y188.322 E5.66739
G1 X140.382 Y188.288 E5.67448
G1 X139.061 Y187.94 E5.73991
G1 X138.661 Y187.812 E5.76002
G1 X137.412 Y187.357 E5.82369
G1 X137.115 Y187.231 E5.83914
G1 X135.896 Y186.655 E5.90371
G1 X135.606 Y186.501 E5.91944
G1 X134.792 Y186.038 E5.96429
G1 X134.527 Y185.874 E5.97922
G1 X133.738 Y185.351 E6.02455
G1 X133.592 Y185.247 E6.03314
G1 X132.932 Y184.747 E6.0728
G1 X132.021 Y183.986 E6.12965
G1 X131.767 Y183.755 E6.14609
G1 X130.8 Y182.794 E6.21139
G1 X130.55 Y182.52 E6.22915
G1 X129.616 Y181.398 E6.29907
G1 X129.428 Y181.145 E6.31417
G1 X128.776 Y180.204 E6.369
G1 X128.566 Y179.868 E6.38798
G1 X127.874 Y178.66 E6.45465
G1 X127.72 Y178.355 E6.47102
G1 X127.235 Y177.303 E6.5265
G1 X127.087 Y176.937 E6.54541
G1 X126.633 Y175.672 E6.60978
G1 X126.537 Y175.358 E6.6255
G1 X126.228 Y174.186 E6.68355
G1 X126.15 Y173.826 E6.7012
G1 X125.922 Y172.516 E6.76488
G1 X125.88 Y172.165 E6.78181
G1 X125.773 Y170.877 E6.84371
G1 X125.762 Y170.554 E6.85919
G1 X125.77 Y169.231 E6.92256
G1 X125.794 Y168.798 E6.94333
G1 X125.927 Y167.437 E7.00882
G1 X125.96 Y167.212 E7.01971
G1 X126.169 Y166.076 E7.07504
G1 X126.241 Y165.756 E7.09075
G1 X126.58 Y164.491 E7.15347
G1 X126.669 Y164.209 E7.16763
G1 X127.178 Y162.831 E7.23799
G1 X127.312 Y162.522 E7.25412
G1 X127.431 Y162.265 E7.26769
G1 X127.675 Y161.641 E7.29978
G1 X127.841 Y160.979 E7.33246
G1 X127.922 Y160.302 E7.36512
G1 X127.918 Y159.618 E7.39788
G1 X127.826 Y158.942 E7.43056
G1 X127.651 Y158.283 E7.46321
G1 X127.435 Y157.74 E7.4912
G1 X127.235 Y157.304 E7.51417
G1 X127.087 Y156.937 E7.53313
G1 X126.633 Y155.672 E7.5975
G1 X126.537 Y155.358 E7.61322
G1 X126.228 Y154.186 E7.67127
G1 X126.146 Y153.81 E7.68971
G1 X125.922 Y152.519 E7.75246
G1 X125.881 Y152.19 E7.76834
G1 X125.774 Y150.89 E7.83081
G1 X125.762 Y150.576 E7.84586
G1 X125.771 Y149.24 E7.90985
G1 X125.793 Y148.802 E7.93086
G1 X125.944 Y147.324 E8.00201
G1 X125.972 Y147.152 E8.01036
G1 X126.157 Y146.13 E8.0601
G1 X126.233 Y145.794 E8.0766
G1 X126.596 Y144.439 E8.14379
G1 X126.695 Y144.136 E8.15906
G1 X127.157 Y142.882 E8.22306
G1 X127.294 Y142.563 E8.23969
G1 X127.777 Y141.535 E8.29409
G1 X127.949 Y141.206 E8.31187
G1 X128.619 Y140.042 E8.3762
G1 X128.811 Y139.746 E8.39309
G1 X129.601 Y138.627 E8.4587
G1 X129.838 Y138.325 E8.47708
G1 X130.613 Y137.409 E8.53455
G1 X130.809 Y137.197 E8.54838
G1 X131.726 Y136.276 E8.61063
G0 F9000 X131.2 Y136.804
G1 F1125 X131.2 Y183.191 E10.83231
G0 F9000 X132.8 Y184.636
G1 F1125 X132.8 Y135.359 E13.19241
G0 F9000 X134.4 Y134.211
G1 F1125 X134.4 Y185.789 E15.66272
G0 F9000 X136 Y186.704
G1 F1125 X136 Y133.297 E18.22063
G0 F9000 X137.6 Y132.575
G1 F1125 X137.6 Y187.425 E20.84765
G0 F9000 X139.2 Y187.976
G1 F1125 X139.2 Y132.025 E23.5274
G0 F9000 X140.8 Y131.63
G1 F1125 X140.8 Y188.371 E26.24498
G0 F9000 X142.4 Y188.619
G1 F1125 X142.4 Y131.379 E28.98647
G0 F9000 X144 Y131.266
G1 F1125 X144 Y188.735 E31.73893
G0 F9000 X145.6 Y188.711
G1 F1125 X145.6 Y131.293 E34.48894
G0 F9000 X147.2 Y131.454
G1 F1125 X147.2 Y188.55 E37.22353
G0 F9000 X148.8 Y188.24
G1 F1125 X148.8 Y131.759 E39.92866
G0 F9000 X150.4 Y132.211
G1 F1125 X150.4 Y187.792 E42.59069
G0 F9000 X152 Y187.172
G1 F1125 X152 Y132.828 E45.19348
G0 F9000 X153.6 Y133.604
G1 F1125 X153.6 Y186.396 E47.72193
G0 F9000 X155.2 Y185.96
G1 F1125 X155.2 Y134.041 E50.20857
G0 F9000 X156.8 Y134.079
G1 F1125 X156.8 Y185.92 E52.69147
G0 F9000 X158.4 Y185.92
G1 F1125 X158.4 Y134.079 E55.17437
G0 F9000 X160 Y134.097
G1 F1125 X160 Y185.908 E57.65584
G0 F9000 X161.6 Y185.767
G1 F1125 X161.6 Y134.233 E60.12404
G0 F9000 X163.2 Y134.557
G1 F1125 X163.2 Y185.445 E62.5613
G0 F9000 X164.8 Y184.929
G1 F1125 X164.8 Y135.066 E64.94947
G0 F9000 X166.4 Y135.808
G1 F1125 X166.4 Y184.202 E67.26728
G0 F9000 X168 Y183.206
G1 F1125 X168 Y136.797 E69.49002
G0 F9000 X169.6 Y138.116
G1 F1125 X169.6 Y181.884 E71.58627
G0 F9000 X171.2 Y180.13
G1 F1125 X171.2 Y139.878 E73.51412
G0 F9000 X172.8 Y142.473
G1 F1125 X172.8 Y157.535 E74.23551
G1 F2700 E69.23551
G0 F9000 X173.532 Y158.513
G0 X173.726 Y161.945
G0 X172.8 Y162.477
G1 F2700 E74.23551
G1 F1125 X172.8 Y177.537 E74.9568
G1 F2700 E69.9568
G0 F9000 X173.747 Y178.023
G0 X172.776 Y179.747
G0 X171.988 Y180.852
G0 X170.575 Y182.431
G0 X168.969 Y183.819
G0 X167.835 Y184.601
G0 X166.001 Y185.585
G0 X164.755 Y186.085
G0 X162.764 Y186.646
G0 X146.99 Y189.652
G0 X145.184 Y189.795
G0 X143.415 Y189.777
G0 X141.625 Y189.6
G0 X140.121 Y189.32
G0 X138.312 Y188.818
G0 X136.674 Y188.2
G0 X135.093 Y187.433
G0 X133.133 Y186.226
G0 X131.106 Y184.595
G0 X130.005 Y183.479
G0 X128.849 Y182.142
G0 X129.6 Y181.376
G1 F2700 E74.9568
G1 F1125 X129.6 Y138.628 E77.0042
G0 F9000 X128 Y141.117
G1 F1125 X128 Y178.879 E78.8128
G0 F9000 X126.4 Y174.838
G1 F1125 X126.4 Y165.162 E79.27623
G1 F2700 E74.27623
G0 F9000 X125.514 Y164.348
G0 X125.511 Y155.644
G0 X126.4 Y154.838
G1 F2700 E79.27623
G1 F1125 X126.4 Y145.17 E79.73927
G1 F2700 E74.73927
G0 F300 X126.4 Y145.17 Z0.324
G0 F9000 X125.202 Y145.528
G0 X124.857 Y147.432
G0 X124.705 Y149.278
G0 X124.718 Y171.063
G0 X124.882 Y172.761
G0 X125.215 Y174.526
G0 X125.667 Y176.138
G0 X126.303 Y177.827
G0 X126.695 Y178.646
G0 X127.643 Y180.397
G0 X128.566 Y179.866
;TIME_ELAPSED:100.355105
;LAYER:-4
M140 S75
;TYPE:SUPPORT
G1 F2700 E79.73927
G1 F1125 X128.775 Y180.203 E79.76301
G1 X129.428 Y181.144 E79.83158
G1 X129.616 Y181.397 E79.85045
G1 X130.549 Y182.519 E79.93782
G1 X130.799 Y182.793 E79.96002
G1 X131.766 Y183.754 E80.04164
G1 X132.021 Y183.984 E80.0622
G1 X132.931 Y184.745 E80.13322
G1 X133.592 Y185.246 E80.18288
G1 X133.737 Y185.349 E80.19352
G1 X134.527 Y185.872 E80.25024
G1 X134.792 Y186.037 E80.26893
G1 X135.566 Y186.478 E80.32227
G1 X128.042 Y178.954 E80.9593
G1 X127.873 Y178.659 E80.97965
G1 X127.719 Y178.354 E81.00011
G1 X127.234 Y177.302 E81.06946
G1 X127.086 Y176.936 E81.09309
G1 X126.889 Y176.387 E81.12801
G1 X138.114 Y187.612 E82.07839
G1 X138.66 Y187.811 E82.11319
G1 X139.061 Y187.939 E82.13839
G1 X140.139 Y188.222 E82.20511
G1 X126.272 Y174.355 E83.37918
G1 X126.227 Y174.185 E83.38971
G1 X126.149 Y173.825 E83.41176
G1 X125.937 Y172.606 E83.48584
G1 X141.892 Y188.562 E84.83673
G1 X142.112 Y188.593 E84.85003
G1 X143.456 Y188.711 E84.93081
G1 X125.786 Y171.041 E86.42686
G1 X125.773 Y170.876 E86.43677
G1 X125.762 Y170.553 E86.45612
G1 X125.767 Y169.608 E86.5127
G1 X144.89 Y188.731 E88.13177
G1 X145.164 Y188.73 E88.14818
G1 X145.535 Y188.715 E88.17041
G1 X146.225 Y188.651 E88.21189
G1 X125.845 Y168.271 E89.9374
G1 X125.926 Y167.436 E89.98762
G1 X125.959 Y167.21 E90.00129
G1 X125.996 Y167.008 E90.01359
G1 X147.485 Y188.497 E91.83299
G1 X148.331 Y188.347 E91.88443
G1 X148.674 Y188.272 E91.90545
G1 X126.225 Y165.823 E93.80612
G1 X126.241 Y165.755 E93.81031
G1 X126.521 Y164.705 E93.87536
G1 X149.787 Y187.971 E95.84521
G1 X150.031 Y187.906 E95.86033
G1 X150.391 Y187.793 E95.88292
G1 X150.853 Y187.623 E95.91239
G1 X126.876 Y163.645 E97.94248
G1 X127.178 Y162.83 E97.99452
G1 X127.267 Y162.622 E98.00806
G1 X151.873 Y187.229 E100.09141
G1 X152.839 Y186.78 E100.15518
G1 X127.679 Y161.62 E102.28539
G1 X127.84 Y160.978 E102.32502
G1 X127.905 Y160.432 E102.35794
G1 X153.794 Y186.321 E104.54987
G1 X153.836 Y186.302 E104.55263
G1 X154.485 Y186.089 E104.59352
G1 X154.897 Y186.01 E104.61864
G1 X127.824 Y158.937 E106.91081
G1 X127.65 Y158.282 E106.95139
G1 X127.435 Y157.739 E106.98635
G1 X127.235 Y157.302 E107.01512
G1 X127.086 Y156.936 E107.03878
G1 X127.002 Y156.7 E107.05378
G1 X156.22 Y185.918 E109.52756
G1 X157.634 Y185.918 E109.61222
G1 X126.344 Y154.628 E112.26143
G1 X126.227 Y154.185 E112.28886
G1 X126.145 Y153.809 E112.3119
G1 X125.979 Y152.849 E112.37023
G1 X159.049 Y185.919 E115.17015
G1 X159.521 Y185.92 E115.19841
G1 X160.266 Y185.899 E115.24302
G1 X160.407 Y185.892 E115.25148
G1 X160.433 Y185.889 E115.25304
G1 X125.804 Y151.26 E118.18496
G1 X125.773 Y150.888 E118.20731
G1 X125.761 Y150.575 E118.22606
G1 X125.766 Y149.808 E118.27198
G1 X161.706 Y185.748 E121.31489
G1 X162.371 Y185.638 E121.35525
G1 X162.534 Y185.605 E121.3652
G1 X162.89 Y185.517 E121.38716
G1 X125.827 Y148.454 E124.52515
G1 X125.944 Y147.322 E124.59328
G1 X125.966 Y147.18 E124.60189
G1 X163.996 Y185.209 E127.82171
G1 X164.412 Y185.076 E127.84786
G1 X164.575 Y185.018 E127.85821
G1 X165.033 Y184.832 E127.88781
G1 X126.188 Y145.987 E131.17668
G1 X126.233 Y145.793 E131.1886
G1 X126.48 Y144.865 E131.24609
G1 X166.008 Y184.392 E134.59275
G1 X166.375 Y184.214 E134.61717
G1 X166.517 Y184.137 E134.62684
G1 X166.926 Y183.897 E134.65523
G1 X126.821 Y143.791 E138.05082
G1 X127.156 Y142.881 E138.10887
G1 X127.207 Y142.763 E138.11657
G1 X167.791 Y183.347 E141.55268
G1 X168.172 Y183.085 E141.58036
G1 X168.311 Y182.981 E141.59075
G1 X168.604 Y182.746 E141.61324
G1 X127.653 Y141.796 E145.08037
G1 X127.777 Y141.534 E145.09773
G1 X127.948 Y141.205 E145.11992
G1 X128.141 Y140.869 E145.14312
G1 X169.369 Y182.096 E148.63371
G1 X169.837 Y181.662 E148.67192
G1 X170.088 Y181.401 E148.6936
G1 X128.661 Y139.975 E152.20104
G1 X128.81 Y139.745 E152.21744
G1 X129.238 Y139.138 E152.26191
G1 X170.759 Y180.659 E155.77734
G1 X171.15 Y180.194 E155.81372
G1 X171.262 Y180.046 E155.82483
G1 X171.387 Y179.873 E155.83761
G1 X129.837 Y138.322 E159.35554
G1 X130.486 Y137.557 E159.4156
G1 X171.963 Y179.034 E162.92731
G1 X172.413 Y178.285 E162.97963
G1 X172.487 Y178.144 E162.98916
G1 X131.173 Y136.83 E166.48707
G1 X131.726 Y136.275 E166.53397
G1 X131.887 Y136.13 E166.54695
G1 X172.955 Y177.198 E170.02403
