;FLAVOR:Marlin
;TIME:2428
;Filament used: 1.06456m
;Layer height: 0.2
;MINX:132.955
;MINY:136.46
;MINZ:0.28
;MAXX:167.045
;MAXY:163.533
;MAXZ:26.48
;Generated with Cura_SteamEngine 4.8.0
M140 S75
M105
M190 S75
M104 S225
M105
M109 S225
M82 ;absolute extrusion mode
M201 X500.00 Y500.00 Z100.00 E5000.00 ;Setup machine max acceleration
M203 X500.00 Y500.00 Z10.00 E50.00 ;Setup machine max feedrate
M204 P500.00 R1000.00 T500.00 ;Setup Print/Retract/Travel acceleration
M205 X8.00 Y8.00 Z0.40 E5.00 ;Setup Jerk
M220 S100 ;Reset Feedrate
M221 S100 ;Reset Flowrate

G28 ;Home
G29

G92 E0 ;Reset Extruder
G1 Z2.0 F3000 ;Move Z Axis up
G1 X10.1 Y20 Z0.28 F5000.0 ;Move to start position
G1 X10.1 Y200.0 Z0.28 F1500.0 E15 ;Draw the first line
G1 X10.4 Y200.0 Z0.28 F5000.0 ;Move to side a little
G1 X10.4 Y20 Z0.28 F1500.0 E30 ;Draw the second line
G92 E0 ;Reset Extruder
G1 Z2.0 F3000 ;Move Z Axis up
G92 E0
G92 E0
G1 F2700 E-8
;LAYER_COUNT:132
;LAYER:0
M107
G0 F6000 X137.895 Y138.868 Z0.28
;TYPE:SKIRT
G1 F2700 E0
G1 F900 X138.469 Y138.326 E0.03676
G1 X139.096 Y137.846 E0.07353
G1 X139.768 Y137.431 E0.11031
G1 X140.478 Y137.086 E0.14706
G1 X141.22 Y136.815 E0.18385
G1 X141.985 Y136.62 E0.22061
G1 X142.766 Y136.504 E0.25737
G1 X143.527 Y136.467 E0.29285
G1 X148.089 Y136.469 E0.50528
G1 X148.125 Y136.467 E0.50695
G1 X149.096 Y136.469 E0.55217
G1 X149.903 Y136.46 E0.58975
G1 X150.069 Y136.46 E0.59748
G1 X150.892 Y136.469 E0.6358
G1 X151.207 Y136.467 E0.65047
G1 X156.439 Y136.468 E0.89409
G1 X157.228 Y136.508 E0.93088
G1 X158.008 Y136.627 E0.96762
G1 X158.773 Y136.825 E1.00442
G1 X159.316 Y137.018 E1.03125
G1 X159.379 Y137.043 E1.03441
G1 X160.097 Y137.371 E1.07116
G1 X160.779 Y137.77 E1.10796
G1 X161.416 Y138.236 E1.14471
G1 X162.17 Y138.935 E1.19258
G1 X162.412 Y139.191 E1.20899
G1 X162.738 Y139.557 E1.23181
G1 X163.585 Y140.574 E1.29344
G1 X163.845 Y140.9 E1.31285
G1 X164.303 Y141.544 E1.34965
G1 X164.585 Y142.022 E1.37549
G1 X165.244 Y143.238 E1.4399
G1 X165.386 Y143.514 E1.45435
G1 X165.586 Y143.921 E1.47546
G1 X165.965 Y144.834 E1.52149
G1 X166.015 Y144.98 E1.52868
G1 X166.094 Y145.223 E1.54058
G1 X166.545 Y146.696 E1.61231
G1 X166.738 Y147.462 E1.64909
G1 X166.832 Y148.058 E1.67719
G1 X166.859 Y148.292 E1.68816
G1 X166.946 Y149.176 E1.72952
G1 X167.011 Y149.875 E1.76221
G1 X167.045 Y150.664 E1.79898
G1 X166.998 Y151.452 E1.83574
G1 X166.872 Y152.232 E1.87253
G1 X166.667 Y152.994 E1.90927
G1 X166.387 Y153.733 E1.94607
G1 X166.033 Y154.439 E1.98285
G1 X165.61 Y155.105 E2.01958
G1 X165.538 Y155.195 E2.02495
G1 X165.196 Y156.397 E2.08314
G1 X164.941 Y157.145 E2.11994
G1 X164.663 Y157.764 E2.15154
G1 X164.201 Y158.684 E2.19948
G1 X164.032 Y158.977 E2.21523
G1 X164.041 Y158.982 E2.21571
G1 X163.783 Y159.45 E2.24059
G1 X163.367 Y160.121 E2.27735
G1 X162.886 Y160.747 E2.31411
G1 X162.343 Y161.321 E2.3509
G1 X161.746 Y161.837 E2.38765
G1 X161.099 Y162.29 E2.42442
G1 X160.753 Y162.495 E2.44315
G1 X160.667 Y162.543 E2.44774
G1 X159.959 Y162.892 E2.48449
G1 X159.219 Y163.168 E2.52127
G1 X158.455 Y163.368 E2.55804
G1 X157.675 Y163.49 E2.5948
G1 X156.867 Y163.532 E2.63248
G1 X146.914 Y163.533 E3.09593
G1 X146.553 Y163.531 E3.11274
G1 X143.141 Y163.533 E3.27162
G1 X142.352 Y163.493 E3.30841
G1 X141.571 Y163.374 E3.34519
G1 X140.807 Y163.177 E3.38193
G1 X140.066 Y162.903 E3.41872
G1 X139.175 Y162.452 E3.46522
G1 X139.08 Y162.396 E3.47035
G1 X138.421 Y161.962 E3.5071
G1 X137.809 Y161.462 E3.5439
G1 X137.251 Y160.904 E3.58064
G1 X136.752 Y160.291 E3.61745
G1 X136.186 Y159.398 E3.66668
G1 X135.945 Y158.954 E3.6902
G1 X135.819 Y158.713 E3.70286
G1 X135.32 Y157.712 E3.75494
G1 X135.004 Y156.988 E3.79173
G1 X134.824 Y156.454 E3.81797
G1 X134.654 Y155.882 E3.84575
G1 X134.585 Y155.598 E3.85936
G1 X134.473 Y155.221 E3.87768
G1 X134.045 Y154.577 E3.91368
G1 X133.677 Y153.878 E3.95047
G1 X133.381 Y153.146 E3.98723
G1 X133.161 Y152.387 E4.02403
G1 X133.018 Y151.611 E4.06077
G1 X132.955 Y150.824 E4.09753
G1 X132.989 Y149.84 E4.14338
G1 X133.145 Y148.236 E4.21842
G1 X133.261 Y147.455 E4.25519
G1 X133.362 Y147.015 E4.27621
G1 X133.54 Y146.422 E4.30504
G1 X133.634 Y146.113 E4.32008
G1 X133.864 Y145.345 E4.35741
G1 X134 Y144.925 E4.37797
G1 X134.393 Y143.96 E4.42648
G1 X134.617 Y143.501 E4.45027
G1 X134.782 Y143.182 E4.46699
G1 X135.436 Y141.985 E4.5305
G1 X135.849 Y141.312 E4.56727
G1 X136.31 Y140.724 E4.60206
G1 X136.438 Y140.555 E4.61193
G1 X136.668 Y140.266 E4.62913
G1 X137.285 Y139.529 E4.67389
G1 X137.637 Y139.137 E4.69842
G1 X137.895 Y138.868 E4.71578
G0 F6000 X138.183 Y139.145
G1 F900 X138.744 Y138.618 E4.75162
G1 X139.356 Y138.152 E4.78744
G1 X140.013 Y137.753 E4.82323
G1 X140.708 Y137.424 E4.85903
G1 X141.434 Y137.168 E4.89488
G1 X142.182 Y136.99 E4.93068
G1 X142.945 Y136.89 E4.96651
G1 X143.527 Y136.867 E4.99364
G1 X148.087 Y136.869 E5.20597
G1 X148.124 Y136.867 E5.20769
G1 X149.099 Y136.869 E5.25309
G1 X149.907 Y136.86 E5.29072
G1 X150.065 Y136.86 E5.29808
G1 X150.89 Y136.869 E5.33649
G1 X151.207 Y136.867 E5.35126
G1 X156.439 Y136.868 E5.59488
G1 X157.207 Y136.908 E5.63069
G1 X157.967 Y137.027 E5.66651
G1 X158.71 Y137.225 E5.70231
G1 X159.168 Y137.39 E5.72498
G1 X159.231 Y137.415 E5.72814
G1 X159.931 Y137.735 E5.76398
G1 X160.593 Y138.127 E5.7998
G1 X161.211 Y138.584 E5.83559
G1 X161.88 Y139.21 E5.87825
G1 X162.122 Y139.466 E5.89466
G1 X162.43 Y139.813 E5.91626
G1 X163.277 Y140.83 E5.97789
G1 X163.532 Y141.148 E5.99687
G1 X163.977 Y141.776 E6.03271
G1 X164.233 Y142.212 E6.05625
G1 X164.892 Y143.428 E6.12066
G1 X165.027 Y143.69 E6.13438
G1 X165.227 Y144.097 E6.1555
G1 X165.587 Y144.963 E6.19917
G1 X165.712 Y145.341 E6.21771
G1 X166.163 Y146.814 E6.28944
G1 X166.349 Y147.56 E6.32524
G1 X166.435 Y148.105 E6.35093
G1 X166.461 Y148.331 E6.36152
G1 X166.548 Y149.213 E6.40279
G1 X166.613 Y149.912 E6.43548
G1 X166.645 Y150.68 E6.47127
G1 X166.596 Y151.448 E6.50711
G1 X166.468 Y152.206 E6.5429
G1 X166.262 Y152.947 E6.57871
G1 X165.98 Y153.663 E6.61455
G1 X165.625 Y154.346 E6.65039
G1 X165.202 Y154.988 E6.68619
G1 X165.169 Y155.028 E6.6886
G1 X164.811 Y156.288 E6.7496
G1 X164.562 Y157.016 E6.78542
G1 X164.306 Y157.585 E6.81448
G1 X163.844 Y158.505 E6.86241
G1 X163.683 Y158.785 E6.87745
G1 X163.69 Y158.789 E6.87783
G1 X163.432 Y159.257 E6.90271
G1 X163.027 Y159.91 E6.93849
G1 X162.555 Y160.518 E6.97433
G1 X162.023 Y161.073 E7.01013
G1 X161.436 Y161.57 E7.04595
G1 X160.559 Y162.146 E7.0948
G1 X160.473 Y162.194 E7.09939
G1 X159.782 Y162.533 E7.13523
G1 X159.061 Y162.799 E7.17101
G1 X158.315 Y162.989 E7.20686
G1 X157.554 Y163.1 E7.24267
G1 X156.867 Y163.132 E7.27469
G1 X146.917 Y163.133 E7.73801
G1 X146.555 Y163.131 E7.75486
G1 X143.14 Y163.133 E7.91388
G1 X142.372 Y163.093 E7.94969
G1 X141.612 Y162.974 E7.98551
G1 X140.869 Y162.777 E8.0213
G1 X140.15 Y162.504 E8.05712
G1 X139.378 Y162.108 E8.09752
G1 X139.283 Y162.052 E8.10265
G1 X138.642 Y161.627 E8.13846
G1 X138.048 Y161.139 E8.17426
G1 X137.508 Y160.591 E8.21008
G1 X137.028 Y159.99 E8.2459
G1 X136.537 Y159.207 E8.28893
G1 X136.296 Y158.763 E8.31246
G1 X136.177 Y158.534 E8.32447
G1 X135.678 Y157.533 E8.37656
G1 X135.371 Y156.828 E8.41236
G1 X135.208 Y156.34 E8.43632
G1 X135.038 Y155.768 E8.4641
G1 X134.97 Y155.486 E8.47761
G1 X134.836 Y155.035 E8.49952
G1 X134.791 Y154.98 E8.50283
G1 X134.368 Y154.338 E8.53863
G1 X134.014 Y153.655 E8.57445
G1 X133.733 Y152.939 E8.61027
G1 X133.528 Y152.198 E8.64607
G1 X133.4 Y151.44 E8.68186
G1 X133.352 Y150.672 E8.71769
G1 X133.387 Y149.879 E8.75465
G1 X133.543 Y148.275 E8.8297
G1 X133.74 Y147.153 E8.88274
G1 X133.75 Y147.114 E8.88461
G1 X133.918 Y146.552 E8.91193
G1 X134.017 Y146.228 E8.9277
G1 X134.247 Y145.46 E8.96503
G1 X134.379 Y145.051 E8.98505
G1 X134.753 Y144.136 E9.03107
G1 X134.977 Y143.677 E9.05486
G1 X135.133 Y143.374 E9.07072
G1 X135.787 Y142.177 E9.13424
G1 X136.19 Y141.522 E9.17005
G1 X136.645 Y140.943 E9.20434
G1 X136.756 Y140.797 E9.21288
G1 X136.975 Y140.523 E9.22921
G1 X137.592 Y139.786 E9.27397
G1 X137.925 Y139.414 E9.29722
G1 X138.183 Y139.145 E9.31457
G0 F6000 X138.472 Y139.422
G1 F900 X139.018 Y138.91 E9.34943
G1 X139.615 Y138.46 E9.38424
G1 X140.257 Y138.076 E9.41907
G1 X140.937 Y137.763 E9.45393
G1 X141.646 Y137.524 E9.48877
G1 X142.376 Y137.362 E9.52359
G1 X143.119 Y137.279 E9.5584
G1 X143.527 Y137.267 E9.5774
G1 X148.087 Y137.269 E9.78974
G1 X148.123 Y137.267 E9.79142
G1 X149.102 Y137.269 E9.837
G1 X150.061 Y137.26 E9.88166
G1 X150.889 Y137.269 E9.92022
G1 X151.207 Y137.267 E9.93502
G1 X156.439 Y137.268 E10.17865
G1 X157.186 Y137.308 E10.21348
G1 X157.924 Y137.427 E10.24829
G1 X158.646 Y137.625 E10.28315
G1 X159.021 Y137.762 E10.30174
G1 X159.084 Y137.787 E10.3049
G1 X159.764 Y138.099 E10.33973
G1 X160.406 Y138.483 E10.37457
G1 X161.004 Y138.932 E10.40939
G1 X161.589 Y139.484 E10.44684
G1 X161.831 Y139.74 E10.46324
G1 X162.123 Y140.069 E10.48373
G1 X162.97 Y141.086 E10.54536
G1 X163.218 Y141.396 E10.56384
G1 X163.65 Y142.007 E10.59869
G1 X163.881 Y142.403 E10.62003
G1 X164.54 Y143.619 E10.68444
G1 X164.668 Y143.867 E10.69743
G1 X164.868 Y144.274 E10.71855
G1 X165.208 Y145.093 E10.75984
G1 X165.329 Y145.458 E10.77774
G1 X165.78 Y146.931 E10.84948
G1 X165.961 Y147.657 E10.88432
G1 X166.038 Y148.153 E10.90769
G1 X166.063 Y148.371 E10.91791
G1 X166.15 Y149.25 E10.95904
G1 X166.215 Y149.949 E10.99173
G1 X166.244 Y150.696 E11.02653
G1 X166.194 Y151.443 E11.0614
G1 X166.064 Y152.179 E11.0962
G1 X165.856 Y152.898 E11.13105
G1 X165.573 Y153.59 E11.16586
G1 X165.217 Y154.249 E11.20074
G1 X164.804 Y154.849 E11.23466
G1 X164.426 Y156.179 E11.29904
G1 X164.183 Y156.886 E11.33385
G1 X163.949 Y157.405 E11.36036
G1 X163.487 Y158.325 E11.4083
G1 X163.333 Y158.591 E11.42261
G1 X163.34 Y158.595 E11.42299
G1 X163.082 Y159.063 E11.44787
G1 X162.687 Y159.698 E11.48269
G1 X162.225 Y160.287 E11.51755
G1 X161.704 Y160.824 E11.55239
G1 X161.128 Y161.302 E11.58724
G1 X160.364 Y161.796 E11.62961
G1 X160.278 Y161.844 E11.63419
G1 X159.606 Y162.174 E11.66905
G1 X158.903 Y162.429 E11.70387
G1 X158.176 Y162.608 E11.73874
G1 X157.435 Y162.709 E11.77356
G1 X156.867 Y162.732 E11.80003
G1 X146.919 Y162.733 E12.26325
G1 X146.557 Y162.731 E12.28011
G1 X143.14 Y162.733 E12.43922
G1 X142.393 Y162.693 E12.47405
G1 X141.655 Y162.574 E12.50886
G1 X140.933 Y162.377 E12.54371
G1 X140.236 Y162.104 E12.57856
G1 X139.581 Y161.763 E12.61295
G1 X139.486 Y161.707 E12.61808
G1 X138.863 Y161.294 E12.65289
G1 X138.288 Y160.816 E12.68771
G1 X137.766 Y160.279 E12.72258
G1 X137.305 Y159.69 E12.75741
G1 X136.889 Y159.016 E12.79429
G1 X136.648 Y158.572 E12.81781
G1 X136.535 Y158.356 E12.82916
G1 X136.036 Y157.355 E12.88124
G1 X135.739 Y156.669 E12.91605
G1 X135.591 Y156.226 E12.9378
G1 X135.421 Y155.654 E12.96559
G1 X135.358 Y155.39 E12.97822
G1 X135.195 Y154.841 E13.00489
G1 X135.102 Y154.727 E13.01174
G1 X134.693 Y154.1 E13.0466
G1 X134.353 Y153.434 E13.08142
G1 X134.087 Y152.735 E13.11624
G1 X133.897 Y152.011 E13.1511
G1 X133.785 Y151.272 E13.1859
G1 X133.752 Y150.524 E13.22077
G1 X133.785 Y149.917 E13.24907
G1 X133.941 Y148.313 E13.32411
G1 X134.127 Y147.252 E13.37427
G1 X134.137 Y147.213 E13.37615
G1 X134.297 Y146.681 E13.40202
G1 X134.4 Y146.343 E13.41847
G1 X134.63 Y145.575 E13.4558
G1 X134.759 Y145.177 E13.47528
G1 X135.112 Y144.311 E13.51883
G1 X135.336 Y143.852 E13.54261
G1 X135.484 Y143.566 E13.5576
G1 X136.138 Y142.369 E13.62112
G1 X136.531 Y141.732 E13.65597
G1 X137.002 Y141.135 E13.69138
G1 X137.075 Y141.039 E13.69699
G1 X137.282 Y140.78 E13.71243
G1 X137.899 Y140.043 E13.75719
G1 X138.214 Y139.691 E13.77918
G1 X138.472 Y139.422 E13.79654
G0 F6000 X138.761 Y139.699
G1 F900 X139.292 Y139.203 E13.83038
G1 X139.874 Y138.768 E13.86421
G1 X140.5 Y138.4 E13.89802
G1 X141.163 Y138.104 E13.93183
G1 X141.855 Y137.882 E13.96567
G1 X142.566 Y137.737 E13.99946
G1 X143.527 Y137.667 E14.04433
G1 X148.085 Y137.669 E14.25657
G1 X148.122 Y137.667 E14.25829
G1 X149.106 Y137.669 E14.30411
G1 X150.056 Y137.66 E14.34835
G1 X150.886 Y137.669 E14.387
G1 X151.206 Y137.667 E14.4019
G1 X156.439 Y137.668 E14.64557
G1 X157.164 Y137.708 E14.67938
G1 X157.881 Y137.827 E14.71322
G1 X158.873 Y138.133 E14.76156
G1 X158.936 Y138.158 E14.76472
G1 X159.596 Y138.463 E14.79857
G1 X160.218 Y138.838 E14.83239
G1 X160.795 Y139.28 E14.86624
G1 X161.298 Y139.759 E14.89858
G1 X161.54 Y140.015 E14.91498
G1 X161.815 Y140.325 E14.93428
G1 X162.662 Y141.342 E14.99591
G1 X162.904 Y141.644 E15.01393
G1 X163.323 Y142.238 E15.04778
G1 X163.53 Y142.593 E15.06691
G1 X164.189 Y143.809 E15.13132
G1 X164.309 Y144.043 E15.14356
G1 X164.509 Y144.45 E15.16468
G1 X164.83 Y145.223 E15.20365
G1 X164.947 Y145.575 E15.22092
G1 X165.398 Y147.048 E15.29265
G1 X165.572 Y147.753 E15.32647
G1 X165.641 Y148.2 E15.34753
G1 X165.665 Y148.41 E15.35737
G1 X165.752 Y149.287 E15.39841
G1 X165.817 Y149.986 E15.4311
G1 X165.844 Y150.712 E15.46493
G1 X165.791 Y151.436 E15.49873
G1 X165.66 Y152.15 E15.53253
G1 X165.45 Y152.846 E15.56638
G1 X165.165 Y153.514 E15.6002
G1 X164.809 Y154.147 E15.63402
G1 X164.443 Y154.657 E15.66325
G1 X164.041 Y156.069 E15.73161
G1 X163.804 Y156.756 E15.76545
G1 X163.591 Y157.226 E15.78948
G1 X163.129 Y158.146 E15.83741
G1 X162.983 Y158.398 E15.85097
G1 X162.99 Y158.402 E15.85135
G1 X162.732 Y158.87 E15.87623
G1 X162.347 Y159.486 E15.91006
G1 X161.896 Y160.056 E15.9439
G1 X161.386 Y160.573 E15.97772
G1 X160.822 Y161.03 E16.01152
G1 X160.169 Y161.447 E16.0476
G1 X160.083 Y161.495 E16.05218
G1 X159.43 Y161.814 E16.08602
G1 X158.746 Y162.059 E16.11986
G1 X158.039 Y162.227 E16.15369
G1 X157.319 Y162.316 E16.18747
G1 X156.867 Y162.332 E16.20853
G1 X146.921 Y162.333 E16.67166
G1 X146.559 Y162.331 E16.68852
G1 X143.14 Y162.333 E16.84772
G1 X142.415 Y162.293 E16.88153
G1 X141.698 Y162.174 E16.91538
G1 X140.999 Y161.977 E16.94919
G1 X140.326 Y161.705 E16.98299
G1 X139.784 Y161.419 E17.01153
G1 X139.689 Y161.363 E17.01666
G1 X139.085 Y160.96 E17.05047
G1 X138.528 Y160.493 E17.08432
G1 X138.026 Y159.968 E17.11814
G1 X137.585 Y159.391 E17.15196
G1 X137.24 Y158.826 E17.18278
G1 X136.999 Y158.382 E17.20631
G1 X136.893 Y158.178 E17.21701
G1 X136.394 Y157.177 E17.26909
G1 X136.106 Y156.51 E17.30292
G1 X135.974 Y156.112 E17.32245
G1 X135.804 Y155.54 E17.35024
G1 X135.743 Y155.283 E17.36254
G1 X135.556 Y154.651 E17.39322
G1 X135.412 Y154.474 E17.40385
G1 X135.018 Y153.863 E17.4377
G1 X134.694 Y153.214 E17.47148
G1 X134.443 Y152.532 E17.50532
G1 X134.268 Y151.827 E17.53914
G1 X134.172 Y151.107 E17.57297
G1 X134.155 Y150.381 E17.60678
G1 X134.183 Y149.956 E17.62661
G1 X134.339 Y148.352 E17.70165
G1 X134.515 Y147.352 E17.74893
G1 X134.525 Y147.313 E17.75081
G1 X134.675 Y146.811 E17.77521
G1 X134.783 Y146.458 E17.79239
G1 X135.013 Y145.69 E17.82973
G1 X135.139 Y145.303 E17.84868
G1 X135.472 Y144.486 E17.88976
G1 X135.696 Y144.027 E17.91354
G1 X135.835 Y143.758 E17.92764
G1 X136.489 Y142.561 E17.99115
G1 X136.872 Y141.943 E18.02501
G1 X137.324 Y141.372 E18.05892
G1 X137.393 Y141.281 E18.06424
G1 X137.588 Y141.036 E18.07882
G1 X138.205 Y140.299 E18.12357
G1 X138.503 Y139.968 E18.14431
G1 X138.761 Y139.699 E18.16167
G0 F6000 X139.049 Y139.975
G1 F900 X139.565 Y139.496 E18.19445
G1 X140.131 Y139.078 E18.22722
G1 X140.741 Y138.727 E18.25999
G1 X141.387 Y138.447 E18.29277
G1 X142.061 Y138.242 E18.32557
G1 X142.753 Y138.115 E18.35834
G1 X143.527 Y138.067 E18.39445
G1 X148.085 Y138.069 E18.60668
G1 X148.122 Y138.067 E18.60841
G1 X149.11 Y138.069 E18.65442
G1 X150.052 Y138.06 E18.69828
G1 X150.884 Y138.069 E18.73702
G1 X151.206 Y138.067 E18.75202
G1 X156.439 Y138.068 E18.99569
G1 X157.142 Y138.108 E19.02848
G1 X157.836 Y138.227 E19.06126
