;FLAVOR:Marlin
;TIME:272
;Filament used: 0.113956m
;Layer height: 0.16
;MINX:133.302
;MINY:140.25
;MINZ:0.28
;MAXX:166.698
;MAXY:159.75
;MAXZ:1.88
;Generated with Cura_SteamEngine 4.8.0
M140 S75
M105
M190 S75
M104 S225
M105
M109 S225
M82 ;absolute extrusion mode
M201 X500.00 Y500.00 Z100.00 E5000.00 ;Setup machine max acceleration
M203 X500.00 Y500.00 Z10.00 E50.00 ;Setup machine max feedrate
M204 P500.00 R1000.00 T500.00 ;Setup Print/Retract/Travel acceleration
M205 X8.00 Y8.00 Z0.40 E5.00 ;Setup Jerk
M220 S100 ;Reset Feedrate
M221 S100 ;Reset Flowrate

G28 ;Home
G29

G92 E0 ;Reset Extruder
G1 Z2.0 F3000 ;Move Z Axis up
G1 X10.1 Y20 Z0.28 F5000.0 ;Move to start position
G1 X10.1 Y200.0 Z0.28 F1500.0 E15 ;Draw the first line
G1 X10.4 Y200.0 Z0.28 F5000.0 ;Move to side a little
G1 X10.4 Y20 Z0.28 F1500.0 E30 ;Draw the second line
G92 E0 ;Reset Extruder
G1 Z2.0 F3000 ;Move Z Axis up
G92 E0
G92 E0
G1 F2700 E-8
;LAYER_COUNT:11
;LAYER:0
M107
G0 F6000 X135.704 Y142.535 Z0.28
;TYPE:SKIRT
G1 F2700 E0
G1 F900 X136.29 Y142.005 E0.03679
G1 X136.926 Y141.538 E0.07353
G1 X137.606 Y141.137 E0.11029
G1 X138.324 Y140.807 E0.14709
G1 X139.071 Y140.552 E0.18384
G1 X139.84 Y140.373 E0.22061
G1 X140.624 Y140.273 E0.25741
G1 X141.219 Y140.25 E0.28513
G1 X158.781 Y140.25 E1.1029
G1 X159.57 Y140.29 E1.13968
G1 X160.35 Y140.409 E1.17642
G1 X161.115 Y140.607 E1.21322
G1 X161.855 Y140.881 E1.24996
G1 X162.564 Y141.229 E1.28674
G1 X163.235 Y141.647 E1.32355
G1 X163.859 Y142.13 E1.36029
G1 X164.296 Y142.535 E1.38804
G1 X164.413 Y142.652 E1.39574
G1 X164.943 Y143.238 E1.43253
G1 X165.41 Y143.874 E1.46927
G1 X165.811 Y144.554 E1.50603
G1 X166.141 Y145.272 E1.54283
G1 X166.396 Y146.019 E1.57958
G1 X166.575 Y146.788 E1.61635
G1 X166.675 Y147.572 E1.65315
G1 X166.698 Y148.167 E1.68088
G1 X166.698 Y151.833 E1.85158
G1 X166.658 Y152.622 E1.88837
G1 X166.539 Y153.402 E1.92511
G1 X166.341 Y154.167 E1.9619
G1 X166.067 Y154.907 E1.99865
G1 X165.719 Y155.616 E2.03542
G1 X165.301 Y156.287 E2.07223
G1 X164.818 Y156.911 E2.10898
G1 X164.413 Y157.348 E2.13672
G1 X164.296 Y157.465 E2.14442
G1 X163.71 Y157.995 E2.18122
G1 X163.074 Y158.462 E2.21796
G1 X162.394 Y158.863 E2.25472
G1 X161.676 Y159.193 E2.29151
G1 X160.929 Y159.448 E2.32827
G1 X160.16 Y159.627 E2.36503
G1 X159.376 Y159.727 E2.40183
G1 X158.781 Y159.75 E2.42956
G1 X141.219 Y159.75 E3.24732
G1 X140.43 Y159.71 E3.28411
G1 X139.65 Y159.591 E3.32085
G1 X138.885 Y159.393 E3.35764
G1 X138.145 Y159.119 E3.39439
G1 X137.436 Y158.771 E3.43116
G1 X136.765 Y158.353 E3.46797
G1 X136.141 Y157.87 E3.50472
G1 X135.704 Y157.465 E3.53246
G1 X135.587 Y157.348 E3.54016
G1 X135.057 Y156.762 E3.57696
G1 X134.59 Y156.126 E3.6137
G1 X134.189 Y155.446 E3.65046
G1 X133.859 Y154.728 E3.68725
G1 X133.604 Y153.981 E3.72401
G1 X133.425 Y153.212 E3.76077
G1 X133.325 Y152.428 E3.79757
G1 X133.302 Y151.833 E3.8253
G1 X133.302 Y148.167 E3.996
G1 X133.342 Y147.378 E4.03279
G1 X133.461 Y146.598 E4.06953
G1 X133.659 Y145.833 E4.10633
G1 X133.933 Y145.093 E4.14307
G1 X134.281 Y144.384 E4.17985
G1 X134.699 Y143.713 E4.21666
G1 X135.182 Y143.089 E4.2534
G1 X135.587 Y142.652 E4.28114
G1 X135.704 Y142.535 E4.28885
G0 F6000 X135.986 Y142.817
G1 F900 X136.558 Y142.303 E4.32466
G1 X137.18 Y141.85 E4.36049
G1 X137.845 Y141.464 E4.39629
G1 X138.547 Y141.149 E4.43212
G1 X139.278 Y140.909 E4.46794
G1 X140.029 Y140.746 E4.50373
G1 X140.794 Y140.662 E4.53956
G1 X141.219 Y140.65 E4.55936
G1 X158.781 Y140.65 E5.37712
G1 X159.549 Y140.69 E5.41293
G1 X160.309 Y140.809 E5.44875
G1 X161.052 Y141.007 E5.48456
G1 X161.771 Y141.281 E5.52039
G1 X162.457 Y141.628 E5.55618
G1 X163.104 Y142.044 E5.592
G1 X163.704 Y142.525 E5.62781
G1 X164.014 Y142.817 E5.64764
G1 X164.131 Y142.934 E5.65534
G1 X164.645 Y143.506 E5.69115
G1 X165.098 Y144.128 E5.72698
G1 X165.484 Y144.793 E5.76278
G1 X165.799 Y145.495 E5.79861
G1 X166.039 Y146.226 E5.83444
G1 X166.202 Y146.977 E5.87022
G1 X166.286 Y147.742 E5.90606
G1 X166.298 Y148.167 E5.92586
G1 X166.298 Y151.833 E6.09656
G1 X166.258 Y152.601 E6.13237
G1 X166.139 Y153.361 E6.16819
G1 X165.941 Y154.104 E6.20399
G1 X165.667 Y154.823 E6.23982
G1 X165.32 Y155.509 E6.27562
G1 X164.904 Y156.156 E6.31144
G1 X164.423 Y156.756 E6.34724
G1 X164.131 Y157.066 E6.36707
G1 X164.014 Y157.183 E6.37478
G1 X163.442 Y157.697 E6.41059
G1 X162.82 Y158.15 E6.44642
G1 X162.155 Y158.536 E6.48222
G1 X161.453 Y158.851 E6.51805
G1 X160.722 Y159.091 E6.55388
G1 X159.971 Y159.254 E6.58966
G1 X159.206 Y159.338 E6.6255
G1 X158.781 Y159.35 E6.64529
G1 X141.219 Y159.35 E7.46305
G1 X140.451 Y159.31 E7.49886
G1 X139.691 Y159.191 E7.53468
G1 X138.948 Y158.993 E7.57049
G1 X138.229 Y158.719 E7.60632
G1 X137.543 Y158.372 E7.64211
G1 X136.896 Y157.956 E7.67793
G1 X136.296 Y157.475 E7.71374
G1 X135.986 Y157.183 E7.73357
G1 X135.869 Y157.066 E7.74127
G1 X135.355 Y156.494 E7.77708
G1 X134.902 Y155.872 E7.81291
G1 X134.516 Y155.207 E7.84871
G1 X134.201 Y154.505 E7.88454
G1 X133.961 Y153.774 E7.92037
G1 X133.798 Y153.023 E7.95615
G1 X133.714 Y152.258 E7.99199
G1 X133.702 Y151.833 E8.01179
G1 X133.702 Y148.167 E8.18249
G1 X133.742 Y147.399 E8.2183
G1 X133.861 Y146.639 E8.25412
G1 X134.059 Y145.896 E8.28992
G1 X134.333 Y145.177 E8.32575
G1 X134.68 Y144.491 E8.36155
G1 X135.096 Y143.844 E8.39737
G1 X135.577 Y143.244 E8.43318
G1 X135.869 Y142.934 E8.45301
G1 X135.986 Y142.817 E8.46071
G0 F6000 X136.269 Y143.1
G1 F900 X136.826 Y142.6 E8.49556
G1 X137.432 Y142.163 E8.53035
G1 X138.082 Y141.792 E8.5652
G1 X138.768 Y141.493 E8.60005
G1 X139.482 Y141.269 E8.63489
G1 X140.215 Y141.122 E8.6697
G1 X141.219 Y141.05 E8.71657
G1 X158.781 Y141.05 E9.53433
G1 X159.528 Y141.09 E9.56917
G1 X160.266 Y141.209 E9.60398
G1 X160.988 Y141.407 E9.63884
G1 X161.684 Y141.68 E9.67365
G1 X162.347 Y142.027 E9.70849
G1 X162.97 Y142.442 E9.74335
G1 X163.731 Y143.1 E9.7902
G1 X163.848 Y143.217 E9.7979
G1 X164.348 Y143.774 E9.83275
G1 X164.785 Y144.38 E9.86754
G1 X165.156 Y145.03 E9.90239
G1 X165.455 Y145.716 E9.93724
G1 X165.679 Y146.43 E9.97208
G1 X165.826 Y147.163 E10.00689
G1 X165.898 Y148.167 E10.05376
G1 X165.898 Y151.833 E10.22447
G1 X165.858 Y152.58 E10.2593
G1 X165.739 Y153.318 E10.29411
G1 X165.541 Y154.04 E10.32897
G1 X165.268 Y154.736 E10.36378
G1 X164.921 Y155.399 E10.39863
G1 X164.506 Y156.022 E10.43348
G1 X163.848 Y156.783 E10.48033
G1 X163.731 Y156.9 E10.48803
G1 X163.174 Y157.4 E10.52289
G1 X162.568 Y157.837 E10.55768
G1 X161.918 Y158.208 E10.59253
G1 X161.232 Y158.507 E10.62737
G1 X160.518 Y158.731 E10.66222
G1 X159.785 Y158.878 E10.69703
G1 X158.781 Y158.95 E10.7439
G1 X141.219 Y158.95 E11.56166
G1 X140.472 Y158.91 E11.59649
G1 X139.734 Y158.791 E11.6313
G1 X139.012 Y158.593 E11.66616
G1 X138.316 Y158.32 E11.70097
G1 X137.653 Y157.973 E11.73582
G1 X137.03 Y157.558 E11.77067
G1 X136.269 Y156.9 E11.81752
G1 X136.152 Y156.783 E11.82522
G1 X135.652 Y156.226 E11.86008
G1 X135.215 Y155.62 E11.89487
G1 X134.844 Y154.97 E11.92972
G1 X134.545 Y154.284 E11.96456
G1 X134.321 Y153.57 E11.99941
G1 X134.174 Y152.837 E12.03422
G1 X134.102 Y151.833 E12.08109
G1 X134.102 Y148.167 E12.25179
G1 X134.142 Y147.42 E12.28663
G1 X134.261 Y146.682 E12.32143
G1 X134.459 Y145.96 E12.35629
G1 X134.732 Y145.264 E12.39111
G1 X135.079 Y144.601 E12.42595
G1 X135.494 Y143.978 E12.46081
G1 X136.152 Y143.217 E12.50765
G1 X136.269 Y143.1 E12.51536
G0 F6000 X136.552 Y143.383
G1 F900 X137.093 Y142.899 E12.54916
G1 X137.684 Y142.476 E12.583
G1 X138.318 Y142.122 E12.61681
G1 X138.987 Y141.839 E12.65064
G1 X139.683 Y141.631 E12.68446
G1 X140.398 Y141.501 E12.7183
G1 X141.219 Y141.45 E12.7566
G1 X158.781 Y141.45 E13.57436
G1 X159.506 Y141.49 E13.60817
G1 X160.223 Y141.609 E13.64202
G1 X160.922 Y141.807 E13.67585
G1 X161.595 Y142.08 E13.70966
G1 X162.234 Y142.425 E13.74348
G1 X162.831 Y142.839 E13.77731
G1 X163.448 Y143.383 E13.81561
G1 X163.565 Y143.5 E13.82331
G1 X164.049 Y144.041 E13.85712
G1 X164.472 Y144.632 E13.89096
G1 X164.826 Y145.266 E13.92477
G1 X165.109 Y145.935 E13.95859
G1 X165.317 Y146.631 E13.99242
G1 X165.447 Y147.346 E14.02626
G1 X165.498 Y148.167 E14.06456
G1 X165.498 Y151.833 E14.23526
G1 X165.458 Y152.558 E14.26908
G1 X165.339 Y153.275 E14.30292
G1 X165.141 Y153.974 E14.33675
G1 X164.868 Y154.647 E14.37057
G1 X164.523 Y155.286 E14.40438
G1 X164.109 Y155.883 E14.43821
G1 X163.565 Y156.5 E14.47651
G1 X163.448 Y156.617 E14.48422
G1 X162.907 Y157.101 E14.51802
G1 X162.316 Y157.524 E14.55186
G1 X161.682 Y157.878 E14.58567
G1 X161.013 Y158.161 E14.61949
G1 X160.317 Y158.369 E14.65332
G1 X159.602 Y158.499 E14.68716
G1 X158.781 Y158.55 E14.72546
G1 X141.219 Y158.55 E15.54322
G1 X140.494 Y158.51 E15.57703
G1 X139.777 Y158.391 E15.61088
G1 X139.078 Y158.193 E15.6447
G1 X138.405 Y157.92 E15.67852
G1 X137.766 Y157.575 E15.71234
G1 X137.169 Y157.161 E15.74617
G1 X136.552 Y156.617 E15.78447
G1 X136.435 Y156.5 E15.79217
G1 X135.951 Y155.959 E15.82597
G1 X135.528 Y155.368 E15.85982
G1 X135.174 Y154.734 E15.89363
G1 X134.891 Y154.065 E15.92745
G1 X134.683 Y153.369 E15.96128
G1 X134.553 Y152.654 E15.99512
G1 X134.502 Y151.833 E16.03342
G1 X134.502 Y148.167 E16.20412
G1 X134.542 Y147.442 E16.23793
G1 X134.661 Y146.725 E16.27178
G1 X134.859 Y146.026 E16.30561
G1 X135.132 Y145.353 E16.33942
G1 X135.477 Y144.714 E16.37324
G1 X135.891 Y144.117 E16.40707
G1 X136.435 Y143.5 E16.44537
G1 X136.552 Y143.383 E16.45307
G0 F6000 X136.835 Y143.666
G1 F900 X137.36 Y143.197 E16.48585
G1 X137.935 Y142.791 E16.51863
G1 X138.553 Y142.453 E16.55143
G1 X139.204 Y142.186 E16.58419
G1 X139.882 Y141.996 E16.61698
G1 X140.577 Y141.883 E16.64977
G1 X141.219 Y141.85 E16.6797
G1 X158.781 Y141.85 E17.49746
G1 X159.484 Y141.89 E17.53025
G1 X160.178 Y142.009 E17.56304
G1 X160.853 Y142.207 E17.59579
G1 X161.502 Y142.479 E17.62856
G1 X162.116 Y142.824 E17.66135
G1 X162.687 Y143.235 E17.69411
G1 X163.165 Y143.666 E17.72408
G1 X163.282 Y143.783 E17.73179
G1 X163.751 Y144.308 E17.76457
G1 X164.157 Y144.883 E17.79734
G1 X164.495 Y145.501 E17.83014
G1 X164.762 Y146.152 E17.86291
G1 X164.952 Y146.83 E17.89569
G1 X165.065 Y147.525 E17.92848
G1 X165.098 Y148.167 E17.95841
G1 X165.098 Y151.833 E18.12912
G1 X165.058 Y152.536 E18.1619
G1 X164.939 Y153.23 E18.19469
G1 X164.741 Y153.905 E18.22745
G1 X164.469 Y154.554 E18.26021
G1 X164.124 Y155.168 E18.29301
G1 X163.713 Y155.739 E18.32577
G1 X163.282 Y156.217 E18.35574
G1 X163.165 Y156.334 E18.36344
G1 X162.64 Y156.803 E18.39622
G1 X162.065 Y157.209 E18.429
G1 X161.447 Y157.547 E18.4618
G1 X160.796 Y157.814 E18.49456
G1 X160.118 Y158.004 E18.52735
G1 X159.423 Y158.117 E18.56014
G1 X158.781 Y158.15 E18.59007
G1 X141.219 Y158.15 E19.40783
G1 X140.516 Y158.11 E19.44062
G1 X139.822 Y157.991 E19.4734
G1 X139.147 Y157.793 E19.50616
G1 X138.498 Y157.521 E19.53893
G1 X137.884 Y157.176 E19.57172
G1 X137.313 Y156.765 E19.60448
G1 X136.835 Y156.334 E19.63445
G1 X136.718 Y156.217 E19.64215
G1 X136.249 Y155.692 E19.67494
G1 X135.843 Y155.117 E19.70771
G1 X135.505 Y154.499 E19.74051
G1 X135.238 Y153.848 E19.77327
G1 X135.048 Y153.17 E19.80606
G1 X134.935 Y152.475 E19.83885
G1 X134.902 Y151.833 E19.86878
G1 X134.902 Y148.167 E20.03949
G1 X134.942 Y147.464 E20.07227
G1 X135.061 Y146.77 E20.10506
G1 X135.259 Y146.095 E20.13782
G1 X135.531 Y145.446 E20.17058
G1 X135.876 Y144.832 E20.20338
G1 X136.287 Y144.261 E20.23614
G1 X136.718 Y143.783 E20.26611
G1 X136.835 Y143.666 E20.27381
G0 F6000 X137.118 Y143.949
G1 F900 X137.627 Y143.496 E20.30554
G1 X138.185 Y143.107 E20.33721
G1 X138.785 Y142.785 E20.36892
G1 X139.419 Y142.536 E20.40064
G1 X140.078 Y142.363 E20.43236
G1 X140.752 Y142.269 E20.46405
G1 X141.219 Y142.25 E20.48581
G1 X158.781 Y142.25 E21.30357
G1 X159.461 Y142.29 E21.33529
G1 X160.131 Y142.409 E21.36698
G1 X160.783 Y142.606 E21.3987
G1 X161.407 Y142.878 E21.43039
G1 X161.995 Y143.222 E21.46211
G1 X162.539 Y143.632 E21.49383
G1 X162.882 Y143.949 E21.51558
G1 X162.999 Y144.066 E21.52328
G1 X163.452 Y144.575 E21.55501
G1 X163.841 Y145.133 E21.58669
G1 X164.163 Y145.733 E21.61839
G1 X164.412 Y146.367 E21.65011
G1 X164.585 Y147.026 E21.68184
G1 X164.679 Y147.7 E21.71352
G1 X164.698 Y148.167 E21.73529
G1 X164.698 Y151.833 E21.90599
G1 X164.658 Y152.513 E21.93771
G1 X164.539 Y153.183 E21.9694
G1 X164.342 Y153.835 E22.00111
G1 X164.07 Y154.459 E22.03281
G1 X163.726 Y155.047 E22.06453
G1 X163.316 Y155.591 E22.09625
G1 X162.999 Y155.934 E22.118
G1 X162.882 Y156.051 E22.1257
G1 X162.373 Y156.504 E22.15743
G1 X161.815 Y156.893 E22.1891
G1 X161.215 Y157.215 E22.22081
G1 X160.581 Y157.464 E22.25253
G1 X159.922 Y157.637 E22.28425
G1 X159.248 Y157.731 E22.31594
G1 X158.781 Y157.75 E22.33771
G1 X141.219 Y157.75 E23.15547
G1 X140.539 Y157.71 E23.18718
G1 X139.869 Y157.591 E23.21887
G1 X139.217 Y157.394 E23.25059
G1 X138.593 Y157.122 E23.28228
G1 X138.005 Y156.778 E23.314
G1 X137.461 Y156.368 E23.34572
G1 X137.118 Y156.051 E23.36747
G1 X137.001 Y155.934 E23.37518
G1 X136.548 Y155.425 E23.4069
G1 X136.159 Y154.867 E23.43858
G1 X135.837 Y154.267 E23.47028
G1 X135.588 Y153.633 E23.502
G1 X135.415 Y152.974 E23.53373
G1 X135.321 Y152.3 E23.56542
G1 X135.302 Y151.833 E23.58718
G1 X135.302 Y148.167 E23.75788
G1 X135.342 Y147.487 E23.7896
G1 X135.461 Y146.817 E23.82129
G1 X135.658 Y146.165 E23.853
G1 X135.93 Y145.541 E23.8847
G1 X136.274 Y144.953 E23.91642
G1 X136.684 Y144.409 E23.94814
G1 X137.001 Y144.066 E23.96989
G1 X137.118 Y143.949 E23.97759
G0 F6000 X137.401 Y144.232
G1 F900 X137.893 Y143.796 E24.0082
G1 X138.434 Y143.424 E24.03878
G1 X139.016 Y143.12 E24.06935
G1 X139.631 Y142.889 E24.09994
G1 X140.27 Y142.734 E24.13056
G1 X141.219 Y142.65 E24.17492
G1 X158.781 Y142.65 E24.99268
G1 X159.437 Y142.69 E25.02328
G1 X160.083 Y142.809 E25.05387
G1 X160.71 Y143.006 E25.08447
G1 X161.308 Y143.278 E25.11506
G1 X161.869 Y143.62 E25.14566
G1 X162.599 Y144.232 E25.19001
G1 X162.716 Y144.349 E25.19772
G1 X163.152 Y144.841 E25.22833
G1 X163.524 Y145.382 E25.2589
G1 X163.828 Y145.964 E25.28948
G1 X164.059 Y146.579 E25.32007
G1 X164.214 Y147.218 E25.35068
G1 X164.298 Y148.167 E25.39505
G1 X164.298 Y151.833 E25.56575
G1 X164.258 Y152.489 E25.59635
G1 X164.139 Y153.135 E25.62694
G1 X163.942 Y153.762 E25.65754
G1 X163.67 Y154.36 E25.68813
G1 X163.328 Y154.921 E25.71873
G1 X162.716 Y155.651 E25.76308
G1 X162.599 Y155.768 E25.77079
G1 X162.107 Y156.204 E25.8014
G1 X161.566 Y156.576 E25.83197
G1 X160.984 Y156.88 E25.86255
G1 X160.369 Y157.111 E25.89314
G1 X159.73 Y157.266 E25.92375
G1 X158.781 Y157.35 E25.96812
G1 X141.219 Y157.35 E26.78588
G1 X140.563 Y157.31 E26.81648
G1 X139.917 Y157.191 E26.84707
G1 X139.29 Y156.994 E26.87767
G1 X138.692 Y156.722 E26.90826
G1 X138.131 Y156.38 E26.93885
G1 X137.401 Y155.768 E26.98321
G1 X137.284 Y155.651 E26.99092
G1 X136.848 Y155.159 E27.02153
G1 X136.476 Y154.618 E27.0521
G1 X136.172 Y154.036 E27.08267
G1 X135.941 Y153.421 E27.11326
G1 X135.786 Y152.782 E27.14388
G1 X135.702 Y151.833 E27.18824
G1 X135.702 Y148.167 E27.35895
G1 X135.742 Y147.511 E27.38955
G1 X135.861 Y146.865 E27.42014
G1 X136.058 Y146.238 E27.45074
G1 X136.33 Y145.64 E27.48133
G1 X136.672 Y145.079 E27.51192
G1 X137.284 Y144.349 E27.55628
G1 X137.401 Y144.232 E27.56399
G0 F6000 X137.683 Y144.514
G1 F900 X138.158 Y144.097 E27.59342
G1 X138.681 Y143.742 E27.62285
G1 X139.245 Y143.456 E27.6523
G1 X139.84 Y143.244 E27.68171
G1 X140.458 Y143.108 E27.71117
G1 X141.219 Y143.05 E27.74671
G1 X158.781 Y143.05 E28.56447
G1 X159.412 Y143.09 E28.59391
G1 X160.033 Y143.209 E28.62336
G1 X160.633 Y143.406 E28.65276
G1 X161.205 Y143.677 E28.68223
G1 X161.737 Y144.017 E28.71163
G1 X162.317 Y144.514 E28.7472
G1 X162.434 Y144.631 E28.7549
