;FLAVOR:Marlin
;TIME:11325
;Filament used: 4.71241m
;Layer height: 0.16
;MINX:96.984
;MINY:128.686
;MINZ:0.28
;MAXX:203.016
;MAXY:171.313
;MAXZ:58.36
;Generated with Cura_SteamEngine 4.8.0
M140 S75
M105
M190 S75
M104 S230
M105
M109 S230
M82 ;absolute extrusion mode
M201 X500.00 Y500.00 Z100.00 E5000.00 ;Setup machine max acceleration
M203 X500.00 Y500.00 Z10.00 E50.00 ;Setup machine max feedrate
M204 P500.00 R1000.00 T500.00 ;Setup Print/Retract/Travel acceleration
M205 X8.00 Y8.00 Z0.40 E5.00 ;Setup Jerk
M220 S100 ;Reset Feedrate
M221 S100 ;Reset Flowrate

G28 ;Home

G92 E0 ;Reset Extruder
G1 Z2.0 F3000 ;Move Z Axis up
G1 X10.1 Y20 Z0.28 F5000.0 ;Move to start position
G1 X10.1 Y200.0 Z0.28 F1500.0 E15 ;Draw the first line
G1 X10.4 Y200.0 Z0.28 F5000.0 ;Move to side a little
G1 X10.4 Y20 Z0.28 F1500.0 E30 ;Draw the second line
G92 E0 ;Reset Extruder
G1 Z2.0 F3000 ;Move Z Axis up

G92 E0
G92 E0
G1 F2700 E-5
;LAYER_COUNT:364
;LAYER:0
M107
M205 X4 Y4
G0 F6000 X101.61 Y130.737 Z0.28
;TYPE:SKIRT
G1 F2700 E0
G1 F900 X102.396 Y130.225 E0.04368
G1 X103.223 Y129.783 E0.08734
G1 X104.085 Y129.413 E0.13102
G1 X104.975 Y129.117 E0.1747
G1 X105.887 Y128.899 E0.21836
G1 X106.814 Y128.758 E0.26202
G1 X107.685 Y128.699 E0.30267
G1 X108.006 Y128.69 E0.31762
G1 X108.314 Y128.686 E0.33197
G1 X191.309 Y128.686 E4.19656
G1 X192.165 Y128.697 E4.23642
G1 X193.101 Y128.751 E4.28008
G1 X194.029 Y128.883 E4.32373
G1 X194.943 Y129.095 E4.36742
G1 X195.835 Y129.384 E4.41108
G1 X196.7 Y129.747 E4.45476
G1 X197.53 Y130.183 E4.49842
G1 X198.321 Y130.688 E4.54211
G1 X199.065 Y131.259 E4.58578
G1 X199.758 Y131.891 E4.62946
G1 X200.395 Y132.579 E4.67312
G1 X200.97 Y133.32 E4.71679
G1 X201.481 Y134.106 E4.76044
G1 X201.923 Y134.934 E4.80415
G1 X202.292 Y135.796 E4.84781
G1 X202.587 Y136.686 E4.89147
G1 X202.805 Y137.598 E4.93513
G1 X202.945 Y138.526 E4.97883
G1 X203.003 Y139.387 E5.01902
G1 X203.012 Y139.707 E5.03392
G1 X203.016 Y140.016 E5.04831
G1 X203.015 Y145.938 E5.32406
G1 X203.005 Y146.659 E5.35764
G1 X202.952 Y147.595 E5.40129
G1 X202.819 Y148.523 E5.44495
G1 X202.608 Y149.437 E5.48863
G1 X202.32 Y150.33 E5.53232
G1 X201.957 Y151.194 E5.57596
G1 X201.521 Y152.025 E5.61965
G1 X201.017 Y152.815 E5.66329
G1 X200.265 Y153.772 E5.71996
G1 X199.654 Y154.467 E5.76305
G1 X197.991 Y156.412 E5.88221
G1 X196.381 Y158.407 E6.00158
G1 X194.878 Y160.382 E6.11715
G1 X193.438 Y162.388 E6.23213
G1 X192.344 Y164.027 E6.32389
G1 X191.543 Y165.207 E6.3903
G1 X191.345 Y165.49 E6.40638
G1 X191.128 Y165.789 E6.42358
G1 X190.95 Y166.027 E6.43742
G1 X190.575 Y166.513 E6.46601
G1 X190.131 Y167.075 E6.49936
G1 X189.519 Y167.786 E6.54304
G1 X188.849 Y168.441 E6.58667
G1 X188.125 Y169.037 E6.63034
G1 X187.352 Y169.57 E6.67406
G1 X186.658 Y169.972 E6.7114
G1 X186.577 Y170.015 E6.71567
G1 X185.73 Y170.419 E6.75937
G1 X184.853 Y170.749 E6.803
G1 X183.95 Y171.004 E6.84669
G1 X183.029 Y171.181 E6.89036
G1 X182.096 Y171.278 E6.93404
G1 X181.602 Y171.297 E6.95706
G1 X180.579 Y171.313 E7.0047
G1 X180.056 Y171.312 E7.02906
G1 X179.349 Y171.301 E7.06198
G1 X178.413 Y171.246 E7.10564
G1 X177.484 Y171.112 E7.14935
G1 X176.312 Y170.824 E7.20554
G1 X176.12 Y170.766 E7.21488
G1 X173.677 Y170.055 E7.33336
G1 X171.217 Y169.414 E7.45173
G1 X168.767 Y168.849 E7.56881
G1 X166.274 Y168.347 E7.68722
G1 X163.81 Y167.926 E7.80362
G1 X161.327 Y167.571 E7.92041
G1 X158.842 Y167.288 E8.03687
G1 X156.313 Y167.072 E8.15506
G1 X153.795 Y166.928 E8.2725
G1 X151.309 Y166.857 E8.38831
G1 X148.785 Y166.857 E8.50584
G1 X146.26 Y166.928 E8.62346
G1 X143.731 Y167.07 E8.7414
G1 X141.238 Y167.281 E8.8579
G1 X138.726 Y167.566 E8.97562
G1 X136.229 Y167.92 E9.09306
G1 X133.76 Y168.342 E9.20969
G1 X131.313 Y168.831 E9.32589
G1 X128.839 Y169.4 E9.44409
G1 X126.446 Y170.023 E9.55924
G1 X124.968 Y170.461 E9.63102
G1 X124.831 Y170.495 E9.63759
G1 X123.536 Y170.867 E9.70033
G1 X122.625 Y171.087 E9.74397
G1 X121.698 Y171.229 E9.78764
G1 X120.717 Y171.292 E9.83341
G1 X119.569 Y171.313 E9.88687
G1 X119.097 Y171.313 E9.90885
G1 X118.418 Y171.303 E9.94047
G1 X117.482 Y171.249 E9.98413
G1 X116.553 Y171.116 E10.02783
G1 X115.64 Y170.904 E10.07147
G1 X114.747 Y170.615 E10.11518
G1 X113.883 Y170.251 E10.15883
G1 X113.086 Y169.834 E10.20072
G1 X113.001 Y169.785 E10.20529
G1 X112.209 Y169.282 E10.24898
G1 X111.463 Y168.714 E10.29264
G1 X110.768 Y168.084 E10.33631
G1 X109.97 Y167.207 E10.39153
G1 X109.833 Y167.039 E10.40162
G1 X109.648 Y166.805 E10.41551
G1 X109.163 Y166.174 E10.45257
G1 X108.735 Y165.599 E10.48595
G1 X108.381 Y165.094 E10.51466
G1 X107.843 Y164.279 E10.56014
G1 X106.39 Y162.146 E10.68031
G1 X104.917 Y160.109 E10.79736
G1 X103.358 Y158.076 E10.91666
G1 X101.809 Y156.171 E11.03099
G1 X100.502 Y154.668 E11.12373
G1 X99.643 Y153.666 E11.18519
G1 X99.063 Y152.929 E11.22886
G1 X98.549 Y152.145 E11.27251
G1 X98.103 Y151.32 E11.31618
G1 X97.729 Y150.46 E11.35985
G1 X97.429 Y149.571 E11.40354
G1 X97.207 Y148.66 E11.4472
G1 X97.063 Y147.733 E11.49088
G1 X96.999 Y146.844 E11.53239
G1 X96.989 Y146.518 E11.54757
G1 X96.984 Y146.181 E11.56327
G1 X96.985 Y140.211 E11.84126
G1 X96.994 Y139.546 E11.87222
G1 X97.047 Y138.61 E11.91588
G1 X97.179 Y137.681 E11.95957
G1 X97.39 Y136.767 E12.00325
G1 X97.678 Y135.875 E12.0469
G1 X98.041 Y135.01 E12.09058
G1 X98.476 Y134.179 E12.13425
G1 X98.98 Y133.389 E12.17789
G1 X99.55 Y132.644 E12.22157
G1 X100.182 Y131.95 E12.26527
G1 X100.87 Y131.313 E12.30893
G1 X101.61 Y130.737 E12.3526
G0 F6000 X101.994 Y130.956
G1 F900 X102.775 Y130.468 E12.39548
G1 X103.595 Y130.05 E12.43834
G1 X104.449 Y129.705 E12.48123
G1 X105.329 Y129.435 E12.52409
G1 X106.229 Y129.243 E12.56694
G1 X107.143 Y129.129 E12.60983
G1 X107.696 Y129.099 E12.63562
G1 X108.017 Y129.09 E12.65057
G1 X108.314 Y129.086 E12.6644
G1 X191.309 Y129.086 E16.52899
G1 X192.159 Y129.097 E16.56858
G1 X193.078 Y129.15 E16.61144
G1 X193.989 Y129.283 E16.65431
G1 X194.885 Y129.494 E16.69717
G1 X195.759 Y129.782 E16.74002
G1 X196.606 Y130.145 E16.78293
G1 X197.417 Y130.58 E16.82578
G1 X198.187 Y131.084 E16.86864
G1 X198.911 Y131.653 E16.91151
G1 X199.583 Y132.283 E16.95441
G1 X200.198 Y132.968 E16.99727
G1 X200.751 Y133.704 E17.04014
G1 X201.238 Y134.485 E17.083
G1 X201.655 Y135.306 E17.12587
G1 X202 Y136.16 E17.16876
G1 X202.269 Y137.04 E17.21161
G1 X202.461 Y137.941 E17.25451
G1 X202.574 Y138.854 E17.29734
G1 X202.603 Y139.398 E17.32271
G1 X202.612 Y139.718 E17.33762
G1 X202.616 Y140.016 E17.3515
G1 X202.615 Y145.932 E17.62697
G1 X202.605 Y146.653 E17.66055
G1 X202.552 Y147.572 E17.70341
G1 X202.42 Y148.483 E17.74627
G1 X202.209 Y149.379 E17.78913
G1 X201.921 Y150.254 E17.83203
G1 X201.559 Y151.1 E17.87488
G1 X201.124 Y151.912 E17.91777
G1 X200.621 Y152.683 E17.96064
G1 X199.965 Y153.507 E18.00968
G1 X199.364 Y154.191 E18.05208
G1 X197.659 Y156.184 E18.17421
G1 X196.098 Y158.119 E18.28997
G1 X194.55 Y160.152 E18.40896
G1 X193.104 Y162.168 E18.52448
G1 X192.013 Y163.802 E18.61597
G1 X191.212 Y164.982 E18.68238
G1 X191.021 Y165.255 E18.69789
G1 X190.804 Y165.554 E18.71509
G1 X190.633 Y165.783 E18.7284
G1 X190.261 Y166.265 E18.75675
G1 X189.817 Y166.827 E18.7901
G1 X189.216 Y167.524 E18.83296
G1 X188.556 Y168.166 E18.87583
G1 X187.843 Y168.749 E18.91872
G1 X187.082 Y169.267 E18.96158
G1 X186.47 Y169.619 E18.99446
G1 X186.389 Y169.662 E18.99873
G1 X185.558 Y170.057 E19.04157
G1 X184.696 Y170.38 E19.08443
G1 X183.809 Y170.626 E19.1273
G1 X182.903 Y170.795 E19.17021
G1 X181.596 Y170.898 E19.23126
G1 X180.756 Y170.912 E19.27038
G1 X180.227 Y170.913 E19.29501
G1 X179.355 Y170.901 E19.33562
G1 X178.436 Y170.846 E19.37849
G1 X177.525 Y170.713 E19.42136
G1 X176.428 Y170.441 E19.47398
G1 X176.269 Y170.392 E19.48173
G1 X173.775 Y169.667 E19.60267
G1 X171.303 Y169.023 E19.72162
G1 X168.865 Y168.461 E19.83812
G1 X166.35 Y167.954 E19.95758
G1 X163.863 Y167.529 E20.07507
G1 X161.397 Y167.177 E20.19106
G1 X158.849 Y166.887 E20.31047
G1 X156.371 Y166.675 E20.42628
G1 X153.827 Y166.53 E20.54493
G1 X151.286 Y166.457 E20.6633
G1 X148.774 Y166.457 E20.78027
G1 X146.227 Y166.528 E20.89891
G1 X143.708 Y166.67 E21.01639
G1 X141.195 Y166.882 E21.13383
G1 X138.697 Y167.166 E21.25089
G1 X136.177 Y167.523 E21.36941
G1 X133.686 Y167.949 E21.48708
G1 X131.251 Y168.436 E21.60271
G1 X128.722 Y169.017 E21.72354
G1 X126.342 Y169.637 E21.83806
G1 X124.854 Y170.078 E21.91033
G1 X124.724 Y170.11 E21.91656
G1 X123.426 Y170.483 E21.97945
G1 X122.531 Y170.698 E22.02231
G1 X121.621 Y170.835 E22.06516
G1 X120.709 Y170.892 E22.10771
G1 X119.567 Y170.913 E22.16089
G1 X119.103 Y170.913 E22.1825
G1 X118.424 Y170.903 E22.21412
G1 X117.505 Y170.849 E22.25699
G1 X116.594 Y170.716 E22.29986
G1 X115.698 Y170.505 E22.34272
G1 X114.824 Y170.216 E22.38558
G1 X113.978 Y169.853 E22.42845
G1 X113.286 Y169.487 E22.4649
G1 X113.201 Y169.438 E22.46947
G1 X112.424 Y168.944 E22.51234
G1 X111.693 Y168.385 E22.55519
G1 X111.013 Y167.764 E22.59807
G1 X110.28 Y166.954 E22.64894
G1 X110.143 Y166.786 E22.65904
G1 X109.965 Y166.561 E22.67239
G1 X109.484 Y165.935 E22.70915
G1 X109.056 Y165.36 E22.74253
G1 X108.714 Y164.873 E22.77024
G1 X108.185 Y164.071 E22.81498
G1 X106.712 Y161.909 E22.9368
G1 X105.23 Y159.859 E23.05458
G1 X103.682 Y157.84 E23.17305
G1 X102.124 Y155.924 E23.28804
G1 X100.805 Y154.408 E23.38161
G1 X99.946 Y153.406 E23.44307
G1 X99.378 Y152.682 E23.48591
G1 X98.875 Y151.911 E23.52878
G1 X98.44 Y151.099 E23.57167
G1 X98.078 Y150.253 E23.61452
G1 X97.79 Y149.378 E23.65742
G1 X97.58 Y148.482 E23.70027
G1 X97.448 Y147.571 E23.74313
G1 X97.399 Y146.832 E23.77762
G1 X97.389 Y146.506 E23.7928
G1 X97.384 Y146.181 E23.80794
G1 X97.385 Y140.217 E24.08565
G1 X97.394 Y139.552 E24.11662
G1 X97.446 Y138.632 E24.15952
G1 X97.578 Y137.721 E24.20239
G1 X97.789 Y136.825 E24.24525
G1 X98.076 Y135.95 E24.28813
G1 X98.439 Y135.104 E24.331
G1 X98.873 Y134.292 E24.37387
G1 X99.376 Y133.521 E24.41673
G1 X99.945 Y132.797 E24.45961
G1 X100.573 Y132.125 E24.50244
G1 X101.258 Y131.509 E24.54534
G1 X101.994 Y130.956 E24.5882
G0 F6000 X102.378 Y131.18
G1 F900 X103.153 Y130.717 E24.63024
G1 X103.966 Y130.324 E24.67229
G1 X104.811 Y130.004 E24.71436
G1 X105.68 Y129.761 E24.75638
G1 X106.568 Y129.595 E24.79844
G1 X107.707 Y129.499 E24.85167
G1 X108.028 Y129.49 E24.86662
G1 X108.314 Y129.486 E24.87994
G1 X191.309 Y129.486 E28.74453
G1 X192.153 Y129.497 E28.78384
G1 X193.055 Y129.55 E28.82591
G1 X193.948 Y129.682 E28.86794
G1 X194.826 Y129.893 E28.90999
G1 X195.682 Y130.181 E28.95205
G1 X196.509 Y130.543 E28.99408
G1 X197.301 Y130.978 E29.03616
G1 X198.052 Y131.48 E29.07822
G1 X198.755 Y132.047 E29.12028
G1 X199.405 Y132.674 E29.16233
G1 X199.997 Y133.356 E29.20438
G1 X200.527 Y134.087 E29.24642
G1 X200.989 Y134.863 E29.28848
G1 X201.382 Y135.676 E29.33053
G1 X201.7 Y136.521 E29.37257
G1 X201.943 Y137.391 E29.41463
G1 X202.108 Y138.279 E29.45668
G1 X202.203 Y139.409 E29.50949
G1 X202.212 Y139.729 E29.52439
G1 X202.216 Y140.016 E29.53776
G1 X202.215 Y145.926 E29.81295
G1 X202.205 Y146.647 E29.84653
G1 X202.153 Y147.549 E29.8886
G1 X202.02 Y148.442 E29.93064
G1 X201.81 Y149.321 E29.97272
G1 X201.523 Y150.177 E30.01476
G1 X201.161 Y151.004 E30.0568
G1 X200.727 Y151.796 E30.09885
G1 X200.225 Y152.547 E30.14091
G1 X199.664 Y153.243 E30.18254
G1 X199.077 Y153.91 E30.22391
G1 X197.36 Y155.919 E30.34697
G1 X195.784 Y157.872 E30.46383
G1 X194.232 Y159.91 E30.58311
G1 X192.769 Y161.948 E30.69993
G1 X191.682 Y163.578 E30.79116
G1 X190.881 Y164.758 E30.85756
G1 X190.697 Y165.02 E30.87247
G1 X190.48 Y165.319 E30.88968
G1 X190.316 Y165.54 E30.90249
G1 X189.948 Y166.017 E30.93054
G1 X189.504 Y166.579 E30.96389
G1 X188.913 Y167.262 E31.00595
G1 X188.264 Y167.891 E31.04803
G1 X187.562 Y168.459 E31.09008
G1 X186.813 Y168.963 E31.13212
G1 X186.283 Y169.265 E31.16052
G1 X186.202 Y169.308 E31.16479
G1 X185.386 Y169.696 E31.20687
G1 X184.539 Y170.01 E31.24893
G1 X183.668 Y170.248 E31.29097
G1 X182.779 Y170.408 E31.33303
G1 X181.589 Y170.498 E31.3886
G1 X180.749 Y170.512 E31.42772
G1 X180.227 Y170.513 E31.45203
G1 X179.361 Y170.501 E31.49236
G1 X178.46 Y170.447 E31.53439
G1 X177.567 Y170.313 E31.57644
G1 X176.545 Y170.058 E31.62548
G1 X176.418 Y170.019 E31.63167
G1 X173.883 Y169.282 E31.7546
G1 X171.388 Y168.632 E31.87465
G1 X168.962 Y168.073 E31.99058
G1 X166.398 Y167.556 E32.11237
G1 X163.945 Y167.137 E32.22825
G1 X161.467 Y166.783 E32.3448
G1 X158.892 Y166.49 E32.46548
G1 X156.356 Y166.273 E32.584
G1 X153.862 Y166.13 E32.70032
G1 X151.297 Y166.057 E32.81981
G1 X148.763 Y166.057 E32.9378
G1 X146.228 Y166.128 E33.05589
G1 X143.688 Y166.271 E33.17435
G1 X141.153 Y166.485 E33.29281
G1 X138.632 Y166.771 E33.41095
G1 X136.119 Y167.127 E33.52913
G1 X133.611 Y167.556 E33.64761
G1 X131.154 Y168.048 E33.76429
G1 X128.637 Y168.626 E33.88454
G1 X126.217 Y169.256 E34.00099
G1 X124.74 Y169.694 E34.07272
G1 X124.617 Y169.725 E34.07863
G1 X123.316 Y170.098 E34.14165
G1 X122.438 Y170.309 E34.1837
G1 X121.544 Y170.441 E34.22578
G1 X120.701 Y170.492 E34.2651
G1 X119.566 Y170.513 E34.31796
G1 X119.109 Y170.513 E34.33924
G1 X118.43 Y170.503 E34.37086
G1 X117.528 Y170.45 E34.41293
G1 X116.635 Y170.317 E34.45497
G1 X115.757 Y170.106 E34.49702
G1 X114.901 Y169.817 E34.53909
G1 X114.074 Y169.455 E34.58113
G1 X113.486 Y169.141 E34.61217
G1 X113.401 Y169.092 E34.61673
G1 X112.639 Y168.607 E34.65879
G1 X111.923 Y168.056 E34.70086
G1 X111.259 Y167.444 E34.74291
G1 X110.59 Y166.701 E34.78947
G1 X110.281 Y166.317 E34.81242
G1 X109.91 Y165.836 E34.8407
G1 X109.377 Y165.121 E34.88223
G1 X109.048 Y164.653 E34.90887
G1 X108.505 Y163.832 E34.9547
G1 X107.051 Y161.696 E35.07502
G1 X105.539 Y159.605 E35.19517
G1 X104.011 Y157.612 E35.31211
G1 X102.412 Y155.645 E35.43015
G1 X101.109 Y154.148 E35.52256
G1 X100.25 Y153.146 E35.58402
G1 X99.693 Y152.435 E35.62607
G1 X99.201 Y151.677 E35.66815
G1 X98.779 Y150.879 E35.71019
G1 X98.428 Y150.047 E35.75224
G1 X98.152 Y149.187 E35.79429
G1 X97.954 Y148.306 E35.83634
G1 X97.834 Y147.411 E35.87839
G1 X97.799 Y146.82 E35.90595
G1 X97.789 Y146.494 E35.92114
G1 X97.784 Y146.181 E35.93572
G1 X97.785 Y140.222 E36.21319
G1 X97.794 Y139.557 E36.24416
G1 X97.846 Y138.655 E36.28623
G1 X97.978 Y137.762 E36.32827
G1 X98.188 Y136.884 E36.3703
G1 X98.475 Y136.027 E36.41239
G1 X98.837 Y135.2 E36.45442
G1 X99.27 Y134.408 E36.49645
G1 X99.772 Y133.657 E36.53852
G1 X100.339 Y132.953 E36.58061
G1 X100.965 Y132.303 E36.62263
G1 X101.646 Y131.71 E36.66468
G1 X102.378 Y131.18 E36.70676
G1 F2700 E31.70676
G0 F6000 X107.323 Y146.668
G0 X107.827 Y147.172
G0 X180.269 Y149.112
G1 F2700 E36.70676
G1 F900 X180.669 Y149.112 E36.72538
G1 X180.669 Y158.398 E37.15778
G1 X180.581 Y158.513 E37.16452
G1 X180.357 Y158.513 E37.17495
G1 X180.269 Y158.398 E37.18169
G1 X180.269 Y149.112 E37.61409
G0 F6000 X179.869 Y148.712
G1 F900 X181.069 Y148.712 E37.66997
G1 X181.069 Y158.535 E38.12737
G1 X180.778 Y158.913 E38.14958
G1 X180.16 Y158.913 E38.17836
G1 X179.869 Y158.535 E38.20057
G1 X179.869 Y148.712 E38.65797
G0 F6000 X179.469 Y148.312
G1 F900 X181.469 Y148.312 E38.7511
G1 X181.469 Y158.67 E39.23341
G1 X180.976 Y159.313 E39.27114
G1 X179.962 Y159.313 E39.31835
G1 X179.469 Y158.67 E39.35608
G1 X179.469 Y148.312 E39.83839
G0 F6000 X179.069 Y147.912
G1 F900 X181.869 Y147.912 E39.96877
G1 X181.869 Y158.806 E40.47604
G1 X181.173 Y159.713 E40.52928
G1 X179.765 Y159.713 E40.59484
G1 X179.069 Y158.806 E40.64808
G1 X179.069 Y147.912 E41.15535
G0 F6000 X178.669 Y147.512
G1 F900 X182.269 Y147.512 E41.32298
G1 X182.269 Y158.941 E41.85516
G1 X181.369 Y160.113 E41.92397
G1 X179.569 Y160.113 E42.00778
G1 X178.669 Y158.941 E42.07659
G1 X178.669 Y147.512 E42.60877
