;FLAVOR:Marlin
;TIME:4276
;Filament used: 2.08522m
;Layer height: 0.16
;MINX:126.235
;MINY:129.507
;MINZ:0.336
;MAXX:173.76
;MAXY:175.397
;MAXZ:26.966
;Generated with Cura_SteamEngine 4.8.0
M140 S75
M105
M190 S75
M104 S190
M105
M109 S190
M82 ;absolute extrusion mode
M201 X500.00 Y500.00 Z100.00 E5000.00 ;Setup machine max acceleration
M203 X500.00 Y500.00 Z10.00 E50.00 ;Setup machine max feedrate
M204 P500.00 R1000.00 T500.00 ;Setup Print/Retract/Travel acceleration
M205 X8.00 Y8.00 Z0.40 E5.00 ;Setup Jerk
M220 S100 ;Reset Feedrate
M221 S100 ;Reset Flowrate

G28 ;Home

G92 E0 ;Reset Extruder
G1 Z2.0 F3000 ;Move Z Axis up
G1 X10.1 Y20 Z0.28 F5000.0 ;Move to start position
G1 X10.1 Y200.0 Z0.28 F1500.0 E15 ;Draw the first line
G1 X10.4 Y200.0 Z0.28 F5000.0 ;Move to side a little
G1 X10.4 Y20 Z0.28 F1500.0 E30 ;Draw the second line
G92 E0 ;Reset Extruder
G1 Z2.0 F3000 ;Move Z Axis up

G92 E0
G92 E0
G1 F2700 E-5
;LAYER_COUNT:165
;LAYER:-7
M107
G0 F9000 X133.726 Y137.433 Z0.336
;TYPE:SUPPORT-INTERFACE
G1 F2700 E0
G1 F900 X134.399 Y136.775 E0.10519
G1 X134.485 Y136.695 E0.11831
G1 X135.051 Y136.209 E0.20168
G1 X136.17 Y135.291 E0.36343
G1 X136.276 Y135.207 E0.37855
G1 X137.348 Y134.414 E0.52756
G1 X137.443 Y134.348 E0.54049
G1 X138.612 Y133.65 E0.69265
G1 X138.707 Y133.596 E0.70486
G1 X140.063 Y132.873 E0.87659
G1 X140.926 Y132.454 E0.9838
G1 X141.062 Y132.393 E1.00046
G1 X141.914 Y132.052 E1.10302
G1 X142.054 Y132.001 E1.11967
G1 X142.72 Y131.783 E1.19798
G1 X144.249 Y131.322 E1.37645
G1 X145.162 Y131.083 E1.48192
G1 X145.312 Y131.049 E1.49911
G1 X146.201 Y130.884 E1.60016
G1 X146.365 Y130.858 E1.61871
G1 X146.994 Y130.782 E1.68952
G1 X148.522 Y130.631 E1.86111
G1 X148.621 Y130.623 E1.87221
G1 X149.541 Y130.566 E1.97522
G1 X149.716 Y130.561 E1.99478
G1 X150.628 Y130.571 E2.09671
G1 X150.787 Y130.578 E2.1145
G1 X151.517 Y130.634 E2.19632
G1 X153.093 Y130.792 E2.37332
G1 X154.016 Y130.918 E2.47743
G1 X154.165 Y130.944 E2.49433
G1 X155.097 Y131.142 E2.60081
G1 X155.176 Y131.161 E2.60989
G1 X155.752 Y131.32 E2.67667
G1 X157.213 Y131.757 E2.84709
G1 X158.179 Y132.085 E2.9611
G1 X158.321 Y132.14 E2.97811
G1 X159.423 Y132.619 E3.1124
G1 X159.565 Y132.687 E3.12999
G1 X160.016 Y132.917 E3.18657
G1 X161.44 Y133.679 E3.36706
G1 X162.27 Y134.163 E3.47443
G1 X162.406 Y134.249 E3.49242
G1 X163.169 Y134.772 E3.59579
G1 X163.27 Y134.846 E3.60979
G1 X163.831 Y135.285 E3.68939
G1 X164.908 Y136.167 E3.84496
G1 X165.729 Y136.89 E3.96722
G1 X165.793 Y136.951 E3.9771
G1 X166.466 Y137.639 E4.08465
G1 X166.578 Y137.761 E4.10316
G1 X167.068 Y138.33 E4.18708
G1 X168.093 Y139.589 E4.36851
G1 X168.668 Y140.351 E4.47519
G1 X168.77 Y140.498 E4.49519
G1 X169.246 Y141.233 E4.59305
G1 X169.342 Y141.392 E4.6138
G1 X169.647 Y141.933 E4.68321
G1 X170.327 Y143.203 E4.8442
G1 X170.387 Y143.321 E4.85899
G1 X170.79 Y144.144 E4.9614
G1 X170.852 Y144.286 E4.97872
G1 X171.189 Y145.125 E5.07976
G1 X171.253 Y145.298 E5.10037
G1 X171.464 Y145.936 E5.17547
G1 X171.915 Y147.412 E5.34795
G1 X172.251 Y148.727 E5.49963
G1 X172.267 Y148.811 E5.50918
G1 X172.488 Y150.265 E5.67354
G1 X172.504 Y150.393 E5.68796
G1 X172.636 Y151.746 E5.83988
G1 X172.647 Y151.866 E5.85334
G1 X172.703 Y152.793 E5.95713
G1 X172.708 Y152.967 E5.97658
G1 X172.696 Y153.881 E6.07873
G1 X172.691 Y154.007 E6.09283
G1 X172.64 Y154.695 E6.16992
G1 X172.477 Y156.315 E6.35188
G1 X172.349 Y157.25 E6.45734
G1 X172.317 Y157.434 E6.47821
G1 X172.134 Y158.294 E6.57648
G1 X172.092 Y158.468 E6.59648
G1 X171.939 Y159.022 E6.66071
G1 X171.504 Y160.48 E6.83074
G1 X171.476 Y160.565 E6.84074
G1 X171.012 Y161.875 E6.99605
G1 X170.991 Y161.929 E7.00253
G1 X170.959 Y162.002 E7.01144
G1 X170.392 Y163.207 E7.16026
G1 X170.333 Y163.324 E7.17491
G1 X169.642 Y164.619 E7.33894
G1 X169.131 Y165.498 E7.45257
G1 X169.065 Y165.603 E7.46643
G1 X168.537 Y166.375 E7.57095
G1 X168.451 Y166.491 E7.58709
G1 X168.003 Y167.066 E7.66855
G1 X167 Y168.283 E7.84479
G1 X166.365 Y169.001 E7.95191
G1 X166.246 Y169.126 E7.97119
G1 X165.573 Y169.782 E8.07622
G1 X165.5 Y169.849 E8.0873
G1 X165.043 Y170.245 E8.15487
G1 X164.238 Y170.911 E8.27163
G1 X164.164 Y170.97 E8.28221
G1 X163.397 Y171.559 E8.39028
G1 X163.282 Y171.642 E8.40613
G1 X162.524 Y172.141 E8.50755
G1 X162.379 Y172.229 E8.5265
G1 X161.613 Y172.656 E8.62451
G1 X161.432 Y172.749 E8.64725
G1 X160.619 Y173.129 E8.74754
G1 X160.501 Y173.179 E8.76186
G1 X159.752 Y173.467 E8.85154
G1 X159.664 Y173.499 E8.86201
G1 X158.693 Y173.801 E8.97565
G1 X158.54 Y173.843 E8.99338
G1 X157.663 Y174.046 E9.09398
G1 X157.485 Y174.081 E9.11425
G1 X156.607 Y174.218 E9.21356
G1 X156.434 Y174.237 E9.23301
G1 X155.524 Y174.314 E9.33507
G1 X155.398 Y174.32 E9.34916
G1 X154.752 Y174.333 E9.42137
G1 X145.183 Y174.332 E10.49075
G1 X144.182 Y174.296 E10.60269
G1 X144.059 Y174.287 E10.61647
G1 X143.142 Y174.185 E10.71958
G1 X142.967 Y174.16 E10.73933
G1 X142.078 Y173.996 E10.84036
G1 X141.955 Y173.968 E10.85446
G1 X141.068 Y173.736 E10.95692
G1 X140.888 Y173.682 E10.97792
G1 X139.864 Y173.328 E11.099
G1 X138.94 Y172.93 E11.21143
G1 X138.793 Y172.86 E11.22963
G1 X137.988 Y172.441 E11.33105
G1 X137.847 Y172.361 E11.34916
G1 X137.087 Y171.891 E11.44903
G1 X136.947 Y171.796 E11.46793
G1 X135.883 Y171.009 E11.61583
G1 X135.102 Y170.373 E11.72839
G1 X135.014 Y170.298 E11.74131
G1 X134.324 Y169.692 E11.84394
G1 X134.209 Y169.583 E11.86165
G1 X133.566 Y168.931 E11.96398
G1 X133.454 Y168.81 E11.98241
G1 X132.995 Y168.278 E12.06093
G1 X131.989 Y167.054 E12.23799
G1 X131.386 Y166.266 E12.34888
G1 X131.279 Y166.113 E12.36974
G1 X130.783 Y165.353 E12.47116
G1 X130.714 Y165.24 E12.48596
G1 X130.366 Y164.628 E12.56464
G1 X129.65 Y163.293 E12.73393
G1 X129.21 Y162.398 E12.84539
G1 X129.122 Y162.2 E12.8696
G1 X128.783 Y161.359 E12.97093
G1 X128.744 Y161.251 E12.98377
G1 X128.505 Y160.528 E13.06886
G1 X128.088 Y159.146 E13.23019
G1 X128.054 Y159.024 E13.24434
G1 X127.832 Y158.174 E13.34252
G1 X127.781 Y157.943 E13.36895
G1 X127.581 Y156.807 E13.49786
G1 X127.557 Y156.648 E13.51583
G1 X127.532 Y156.455 E13.53758
G1 X127.48 Y155.989 E13.58998
G1 X127.353 Y154.694 E13.73539
G1 X127.292 Y153.701 E13.84657
G1 X127.289 Y153.577 E13.86044
G1 X127.299 Y152.636 E13.9656
G1 X127.306 Y152.482 E13.98283
G1 X127.355 Y151.817 E14.05735
G1 X127.511 Y150.256 E14.23267
G1 X127.643 Y149.297 E14.34085
G1 X127.676 Y149.112 E14.36185
G1 X127.891 Y148.113 E14.47605
G1 X127.92 Y147.991 E14.49006
G1 X128.078 Y147.428 E14.55541
G1 X128.532 Y145.932 E14.73012
G1 X128.848 Y145.014 E14.83862
G1 X128.895 Y144.888 E14.85365
G1 X129.081 Y144.429 E14.909
G1 X129.632 Y143.282 E15.0512
G1 X130.378 Y141.889 E15.22779
G1 X130.89 Y141.011 E15.34138
G1 X130.986 Y140.861 E15.36128
G1 X131.505 Y140.105 E15.46376
G1 X131.579 Y140.005 E15.47766
G1 X131.977 Y139.492 E15.55022
G1 X132.931 Y138.328 E15.71841
G1 X132.994 Y138.254 E15.72927
G1 X133.617 Y137.548 E15.8345
G1 X133.726 Y137.433 E15.8522
G0 F9000 X134.4 Y136.774
G1 F900 X134.4 Y169.758 E19.5383
G0 F9000 X136 Y171.095
G1 F900 X136 Y135.43 E23.52401
G0 F9000 X137.6 Y134.254
G1 F900 X137.6 Y172.208 E27.76552
G0 F9000 X139.2 Y173.041
G1 F900 X139.2 Y133.333 E32.20305
G0 F9000 X140.8 Y132.515
G1 F900 X140.8 Y173.651 E36.80017
G0 F9000 X142.4 Y174.055
G1 F900 X142.4 Y131.887 E41.51261
G0 F9000 X144 Y131.397
G1 F900 X144 Y174.28 E46.30496
G0 F9000 X145.6 Y174.332
G1 F900 X145.6 Y130.995 E51.14805
G0 F9000 X147.2 Y130.761
G1 F900 X147.2 Y174.332 E56.01728
G0 F9000 X148.8 Y174.332
G1 F900 X148.8 Y130.611 E60.90328
G0 F9000 X150.4 Y130.569
G1 F900 X150.4 Y174.332 E65.79397
G0 F9000 X152 Y174.332
G1 F900 X152 Y130.683 E70.67193
G0 F9000 X153.6 Y130.862
G1 F900 X153.6 Y174.332 E75.52987
G0 F9000 X155.2 Y174.324
G1 F900 X155.2 Y131.168 E80.35273
G0 F9000 X156.8 Y131.634
G1 F900 X156.8 Y174.188 E85.10831
G0 F9000 X158.4 Y173.876
G1 F900 X158.4 Y132.175 E89.76857
G0 F9000 X160 Y132.909
G1 F900 X160 Y173.372 E94.29047
G0 F9000 X161.6 Y172.663
G1 F900 X161.6 Y133.773 E98.63659
G0 F9000 X163.2 Y134.795
G1 F900 X163.2 Y171.696 E102.76043
G0 F9000 X164.8 Y170.447
G1 F900 X164.8 Y136.079 E106.60119
G0 F9000 X166.4 Y137.572
G1 F900 X166.4 Y168.962 E110.10915
G0 F9000 X168 Y167.07
G1 F900 X168 Y139.475 E113.193
G0 F9000 X169.6 Y141.85
G1 F900 X169.6 Y164.692 E115.74569
G0 F9000 X171.2 Y161.345
G1 F900 X171.2 Y145.155 E117.55499
G1 F2700 E112.55499
G0 F9000 X172.184 Y144.747
G0 X171.273 Y142.715
G0 X170.151 Y140.674
G0 X168.884 Y138.874
G0 X167.244 Y136.911
G0 X165.69 Y135.436
G0 X163.789 Y133.907
G0 X161.898 Y132.715
G0 X159.855 Y131.646
G0 X158.534 Y131.082
G0 X155.292 Y130.085
G0 X153.067 Y129.718
G0 X150.664 Y129.507
G0 X148.431 Y129.57
G0 X146.028 Y129.834
G0 X143.862 Y130.326
G0 X141.54 Y131.055
G0 X139.485 Y131.975
G0 X136.822 Y133.482
G0 X134.373 Y135.389
G0 X133.13 Y136.55
G0 X132.116 Y137.644
G0 X132.8 Y138.487
G1 F2700 E117.55499
G1 F900 X132.8 Y168.04 E120.85765
G0 F9000 X131.2 Y165.991
G1 F900 X131.2 Y140.549 E123.7009
G0 F9000 X129.6 Y143.348
G1 F900 X129.6 Y163.191 E125.91844
G1 F2700 E120.91844
G0 F9000 X128.643 Y163.659
G0 X127.877 Y161.939
G0 X127.067 Y159.446
G0 X128 Y158.817
G1 F2700 E125.91844
G1 F900 X128 Y147.705 E127.16025
G1 F2700 E122.16025
G0 F300 X128 Y147.705 Z0.576
G0 F9000 X126.852 Y147.883
G0 X126.453 Y150.138
G0 X126.235 Y152.6
G0 X126.293 Y154.786
G0 X126.529 Y156.974
G0 X126.795 Y158.416
G0 X127.791 Y161.747
G0 X128.704 Y163.781
G0 X129.887 Y165.927
G0 X130.919 Y167.383
G0 X132.182 Y168.966
G0 X133.453 Y168.809
;TIME_ELAPSED:86.154371
;LAYER:-6
;TYPE:SUPPORT
G1 F2700 E127.16025
G1 F900 X134.417 Y169.772 E127.26902
G1 X134.324 Y169.69 E127.27891
G1 X134.208 Y169.582 E127.29156
G1 X133.566 Y168.929 E127.36466
G0 F9000 X134.417 Y169.772
G1 F900 X135.014 Y170.297 E127.42812
G1 X135.101 Y170.372 E127.43729
G1 X135.883 Y171.008 E127.51775
G1 X136.947 Y171.795 E127.6234
G1 X137.086 Y171.89 E127.63683
G1 X137.846 Y172.36 E127.70816
G1 X137.988 Y172.44 E127.72117
G1 X138.792 Y172.859 E127.79355
G1 X138.94 Y172.929 E127.80661
G1 X139.024 Y172.965 E127.81391
G1 X129.995 Y163.936 E128.83318
G1 X129.649 Y163.292 E128.89154
G1 X129.209 Y162.396 E128.97122
G1 X129.121 Y162.198 E128.98852
G1 X128.783 Y161.358 E129.06079
G1 X128.755 Y161.282 E129.06726
G1 X141.258 Y173.784 E130.47865
G1 X141.955 Y173.967 E130.53617
G1 X142.078 Y173.995 E130.54624
G1 X142.967 Y174.158 E130.61839
G1 X143.059 Y174.172 E130.62582
G1 X128.111 Y159.224 E132.31328
G1 X128.088 Y159.145 E132.31984
G1 X128.053 Y159.023 E132.32997
G1 X127.831 Y158.173 E132.4001
G1 X127.781 Y157.942 E132.41897
G1 X127.682 Y157.38 E132.46452
G1 X144.611 Y174.31 E134.37567
G1 X145.183 Y174.331 E134.42136
G1 X146.047 Y174.331 E134.49033
G1 X127.455 Y155.739 E136.58915
G1 X127.352 Y154.693 E136.67305
G1 X127.322 Y154.192 E136.71312
G1 X147.461 Y174.331 E138.98658
G1 X148.875 Y174.331 E139.09945
G1 X127.297 Y152.753 E141.53536
G1 X127.299 Y152.634 E141.54486
G1 X127.305 Y152.481 E141.55709
G1 X127.354 Y151.816 E141.61031
G1 X127.392 Y151.433 E141.64104
G1 X150.289 Y174.331 E144.2259
G1 X151.704 Y174.331 E144.33885
G1 X127.524 Y150.152 E147.06845
G1 X127.643 Y149.296 E147.13743
G1 X127.675 Y149.111 E147.15242
G1 X127.714 Y148.928 E147.16736
G1 X153.118 Y174.331 E150.03512
G1 X154.532 Y174.331 E150.14799
G1 X127.979 Y147.778 E153.14553
G1 X128.078 Y147.427 E153.17464
G1 X128.302 Y146.687 E153.23635
G1 X155.896 Y174.281 E156.3514
G1 X156.433 Y174.236 E156.39442
G1 X156.607 Y174.216 E156.4084
G1 X157.16 Y174.13 E156.45307
G1 X128.641 Y145.611 E159.67254
G1 X128.847 Y145.013 E159.72303
G1 X128.894 Y144.886 E159.73384
G1 X129.02 Y144.576 E159.76055
G1 X158.333 Y173.889 E163.06966
G1 X158.54 Y173.842 E163.0866
G1 X158.693 Y173.799 E163.09929
G1 X159.428 Y173.57 E163.16074
G1 X129.471 Y143.614 E166.54249
G1 X129.631 Y143.281 E166.57198
G1 X129.952 Y142.68 E166.62637
G1 X160.463 Y173.191 E170.07071
G1 X160.501 Y173.178 E170.07392
G1 X160.619 Y173.128 E170.08415
G1 X161.431 Y172.748 E170.15571
G0 F9000 X161.433 Y172.746
G1 F900 X130.449 Y141.763 E173.6534
G1 X130.89 Y141.01 E173.72306
G1 X130.975 Y140.875 E173.73579
G1 X162.346 Y172.246 E177.27722
G1 X162.378 Y172.228 E177.28015
G1 X162.523 Y172.14 E177.29369
G1 X163.205 Y171.691 E177.35887
G1 X131.552 Y140.038 E180.93213
G1 X131.578 Y140.004 E180.93555
G1 X131.977 Y139.49 E180.98749
G1 X132.176 Y139.247 E181.01256
G1 X164.013 Y171.084 E184.6066
G1 X164.164 Y170.969 E184.62175
G1 X164.238 Y170.91 E184.6293
G1 X164.793 Y170.45 E184.68685
G1 X132.813 Y138.47 E188.29703
G1 X132.931 Y138.327 E188.31182
G1 X132.994 Y138.253 E188.31958
G1 X133.469 Y137.712 E188.37705
G1 X165.554 Y169.797 E191.99908
G1 X165.572 Y169.781 E192.001
G1 X166.245 Y169.125 E192.07603
G1 X166.271 Y169.099 E192.07896
G1 X134.169 Y136.998 E195.70286
G1 X134.398 Y136.774 E195.72843
G1 X134.485 Y136.694 E195.73786
G1 X134.913 Y136.327 E195.78287
G1 X166.938 Y168.352 E199.39812
G1 X166.999 Y168.282 E199.40554
G1 X167.579 Y167.579 E199.47829
G1 X135.686 Y135.686 E203.07864
G1 X136.168 Y135.29 E203.12844
G1 X136.275 Y135.207 E203.13925
G1 X136.474 Y135.06 E203.159
G1 X168.211 Y166.797 E206.74174
G1 X168.449 Y166.491 E206.77269
G1 X168.536 Y166.375 E206.78426
G1 X168.807 Y165.979 E206.82257
G1 X137.286 Y134.458 E210.38093
G1 X137.347 Y134.413 E210.38698
G1 X137.442 Y134.348 E210.39617
G1 X138.161 Y133.918 E210.46304
G1 X169.354 Y165.112 E213.98444
G1 X169.641 Y164.619 E214.02997
G1 X169.862 Y164.205 E214.06743
G1 X139.063 Y133.406 E217.54429
G1 X139.985 Y132.914 E217.62771
G1 X170.354 Y163.282 E221.05597
G1 X170.391 Y163.207 E221.06265
G1 X170.808 Y162.322 E221.14074
G1 X140.934 Y132.449 E224.51312
G1 X141.06 Y132.393 E224.52413
G1 X141.913 Y132.052 E224.59745
G1 X141.941 Y132.042 E224.59983
G1 X171.211 Y161.311 E227.90402
G1 X171.475 Y160.564 E227.96727
G1 X171.503 Y160.48 E227.97433
G1 X171.57 Y160.257 E227.99292
G1 X143.009 Y131.695 E231.21719
G1 X144.096 Y131.368 E231.3078
G1 X171.894 Y159.166 E234.44588
G1 X171.937 Y159.021 E234.45795
G1 X172.091 Y158.468 E234.50377
G1 X172.133 Y158.293 E234.51814
G1 X172.186 Y158.044 E234.53846
G1 X145.213 Y131.071 E237.58341
G1 X145.311 Y131.048 E237.59144
G1 X146.199 Y130.884 E237.66352
G1 X146.364 Y130.857 E237.67687
G1 X146.409 Y130.852 E237.68048
G1 X172.403 Y156.847 E240.61497
G1 X172.476 Y156.315 E240.65783
G1 X172.551 Y155.58 E240.71681
G1 X147.684 Y130.714 E243.52395
G1 X148.52 Y130.63 E243.59102
G1 X148.62 Y130.623 E243.59902
G1 X148.985 Y130.6 E243.62822
G1 X172.669 Y154.285 E246.30193
G1 X172.69 Y154.007 E246.32418
G1 X172.695 Y153.88 E246.33433
G1 X172.707 Y152.967 E246.40722
G1 X172.705 Y152.906 E246.41209
G1 X150.367 Y130.568 E248.93379
G1 X150.627 Y130.57 E248.95455
G1 X150.786 Y130.578 E248.96726
G1 X151.516 Y130.633 E249.02569
G1 X151.884 Y130.671 E249.05523
G1 X172.6 Y151.387 E251.39383
G1 X172.502 Y150.393 E251.47356
G1 X172.487 Y150.264 E251.48392
G1 X172.415 Y149.787 E251.52243
G1 X153.471 Y130.844 E253.66094
G1 X154.014 Y130.917 E253.70467
G1 X154.164 Y130.944 E253.71684
G1 X155.096 Y131.142 E253.79289
G1 X155.175 Y131.16 E253.79936
G1 X155.212 Y131.171 E253.80244
G1 X172.072 Y148.03 E255.70569
G1 X171.914 Y147.411 E255.75668
G1 X171.495 Y146.039 E255.8712
G1 X157.212 Y131.756 E257.48359
G1 X158.178 Y132.084 E257.56502
G1 X158.319 Y132.139 E257.5771
G1 X159.422 Y132.618 E257.67309
G1 X159.55 Y132.68 E257.68444
G1 X170.573 Y143.703 E258.92882
G1 X170.386 Y143.321 E258.96277
G1 X170.326 Y143.203 E258.97333
G1 X169.646 Y141.933 E259.08833
G1 X169.341 Y141.392 E259.1379
G1 X169.245 Y141.232 E259.1528
G1 X168.769 Y140.497 E259.2227
G1 X168.741 Y140.456 E259.22666
