;Sliced by ideaMaker 3.5.3.4250, 2021-03-09 14:14:46 UTC-0600
;Dimension: 300.000 300.000 400.000 0.400
;Plate Shape: 0
;Extruder Offset #1: 25.000 0.000
;Filament Diameter #1: 1.750
;Filament Diameter #2: 1.750
;Filament Compensation #1: 100.00
;Filament Compensation #2: 90.00
;Filament Density #1: 1240.00
;Filament Density #2: 1240.00
;Bounding Box: 126.746 173.254 126.668 173.290 0.000 11.500
;Model Gap: 0.000
M221 T0 S100.00
M140 S50.00
M104 T0 S195.00
M109 T0 S195.00
T0
M190 S50.00
M201 X500.00 Y500.00 Z100.00 E5000.00 ;Setup machine max acceleration
M203 X500.00 Y500.00 Z10.00 E50.00 ;Setup machine max feedrate
M204 P500.00 R1000.00 T500.00 ;Setup Print/Retract/Travel acceleration
M205 X8.00 Y8.00 Z0.40 E5.00 ;Setup Jerk
M220 S100 ;Reset Feedrate
M221 S100 ;Reset Flowrate
G28 ;Home
G92 E0 ;Reset Extruder
G1 Z2.0 F3000 ;Move Z Axis up
G1 X10.1 Y20 Z0.28 F5000.0 ;Move to start position
G1 X10.1 Y200.0 Z0.28 F1500.0 E15 ;Draw the first line
G1 X10.4 Y200.0 Z0.28 F5000.0 ;Move to side a little
G1 X10.4 Y20 Z0.28 F1500.0 E30 ;Draw the second line
G92 E0 ;Reset Extruder
G1 Z2.0 F3000 ;Move Z Axis up
M1001
;LAYER:0
;Z:0.300
;HEIGHT:0.300
M106 S0
G1 F2400 E-1.5000
G0 F6000 X132.905 Y134.105
G0 F300 Z0.300
;TYPE:SKIRT
;WIDTH:0.400
G1 F1500 E0.0000
G1 F900 X136.682 Y130.781 E0.2510
G1 X138.250 Y129.816 E0.3429
G1 X141.371 Y128.266 E0.5167
G1 X143.171 Y127.628 E0.6120
G1 X145.675 Y127.043 E0.7403
G1 X148.176 Y126.720 E0.8661
G1 X150.767 Y126.668 E0.9954
G1 X152.922 Y126.834 E1.1032
G1 X155.530 Y127.288 E1.2353
G1 X157.641 Y127.890 E1.3448
G1 X159.691 Y128.736 E1.4555
G1 X162.211 Y130.070 E1.5977
G1 X163.464 Y130.873 E1.6720
G1 X167.477 Y134.520 E1.9425
G1 X169.853 Y137.748 E2.1425
G1 X171.720 Y141.522 E2.3525
G1 X172.980 Y146.201 E2.5943
G1 X173.254 Y151.363 E2.8522
G1 X172.398 Y156.443 E3.1092
G1 X170.537 Y161.137 E3.3611
G1 X169.209 Y163.311 E3.4882
G1 X168.393 Y164.441 E3.5577
G1 X165.097 Y167.808 E3.7928
G1 X161.847 Y170.128 E3.9920
G1 X159.235 Y171.462 E4.1383
G1 X156.944 Y172.334 E4.2606
G1 X154.600 Y172.914 E4.3811
G1 X152.448 Y173.220 E4.4896
G1 X150.764 Y173.290 E4.5736
G1 X150.010 Y173.252 E4.6113
G1 X149.400 Y173.287 E4.6418
G1 X148.593 Y173.278 E4.6821
G1 X144.319 Y172.680 E4.8974
G1 X142.295 Y172.089 E5.0026
G1 X140.235 Y171.220 E5.1141
G1 X137.526 Y169.770 E5.2674
G1 X136.321 Y168.973 E5.3395
G1 X132.148 Y165.060 E5.6249
G1 X130.087 Y162.152 E5.8027
G1 X128.285 Y158.496 E6.0061
G1 X127.013 Y153.752 E6.2511
G1 X126.746 Y148.397 E6.5186
G1 X127.365 Y144.379 E6.7214
G1 X128.548 Y140.807 E6.9091
G1 X130.641 Y136.962 E7.1275
G1 X132.905 Y134.105 E7.3094
G0 F6000 X133.170 Y134.405
G1 F900 X136.892 Y131.121 E7.5570
G1 X138.428 Y130.174 E7.6471
G1 X141.505 Y128.643 E7.8185
G1 X143.262 Y128.017 E7.9116
G1 X145.726 Y127.440 E8.0378
G1 X148.227 Y127.117 E8.1637
G1 X150.737 Y127.067 E8.2889
G1 X152.854 Y127.228 E8.3948
G1 X155.421 Y127.673 E8.5248
G1 X157.489 Y128.260 E8.6321
G1 X159.504 Y129.090 E8.7408
G1 X162.024 Y130.424 E8.8830
G1 X163.248 Y131.210 E8.9556
G1 X167.155 Y134.758 E9.2189
G1 X169.495 Y137.926 E9.4154
G1 X171.334 Y141.627 E9.6216
G1 X172.581 Y146.222 E9.8591
G1 X172.855 Y151.384 E10.1170
G1 X172.026 Y156.296 E10.3655
G1 X170.196 Y160.929 E10.6141
G1 X168.884 Y163.078 E10.7397
G1 X168.107 Y164.161 E10.8062
G1 X164.811 Y167.528 E11.0412
G1 X161.665 Y169.772 E11.2340
G1 X159.093 Y171.088 E11.3782
G1 X156.802 Y171.960 E11.5005
G1 X154.544 Y172.518 E11.6165
G1 X152.392 Y172.824 E11.7250
G1 X150.748 Y172.890 E11.8070
G1 X150.008 Y172.852 E11.8440
G1 X149.404 Y172.887 E11.8742
G1 X148.597 Y172.878 E11.9145
G1 X144.431 Y172.296 E12.1243
G1 X142.450 Y171.720 E12.2272
G1 X140.424 Y170.867 E12.3369
G1 X137.747 Y169.436 E12.4884
G1 X136.542 Y168.639 E12.5604
G1 X132.474 Y164.828 E12.8385
G1 X130.445 Y161.974 E13.0132
G1 X128.671 Y158.392 E13.2127
G1 X127.412 Y153.731 E13.4535
G1 X127.141 Y148.457 E13.7170
G1 X127.745 Y144.505 E13.9165
G1 X128.928 Y140.933 E14.1042
G1 X130.955 Y137.210 E14.3157
G1 X133.170 Y134.405 E14.4940
G0 F6000 X133.435 Y134.705
G1 F900 X137.102 Y131.461 E14.7382
G1 X138.607 Y130.532 E14.8265
G1 X141.639 Y129.020 E14.9955
G1 X143.396 Y128.394 E15.0886
G1 X145.777 Y127.837 E15.2106
G1 X148.278 Y127.514 E15.3364
G1 X150.707 Y127.466 E15.4576
G1 X152.824 Y127.627 E15.5635
G1 X155.312 Y128.058 E15.6895
G1 X157.337 Y128.630 E15.7945
G1 X159.317 Y129.444 E15.9013
G1 X161.837 Y130.778 E16.0435
G1 X162.980 Y131.507 E16.1112
G1 X166.833 Y134.996 E16.3705
G1 X169.173 Y138.164 E16.5670
G1 X170.948 Y141.733 E16.7658
G1 X172.182 Y146.243 E16.9991
G1 X172.456 Y151.405 E17.2570
G1 X171.654 Y156.150 E17.4971
G1 X169.855 Y160.721 E17.7422
G1 X168.559 Y162.845 E17.8663
G1 X167.782 Y163.928 E17.9328
G1 X164.525 Y167.248 E18.1648
G1 X161.483 Y169.416 E18.3512
G1 X158.951 Y170.714 E18.4932
G1 X156.660 Y171.586 E18.6154
G1 X154.488 Y172.122 E18.7271
G1 X152.336 Y172.428 E18.8355
G1 X150.733 Y172.490 E18.9155
G1 X150.006 Y172.452 E18.9519
G1 X149.408 Y172.487 E18.9817
G1 X148.601 Y172.478 E19.0220
G1 X144.542 Y171.912 E19.2265
G1 X142.605 Y171.351 E19.3271
G1 X140.612 Y170.514 E19.4349
G1 X137.968 Y169.102 E19.5845
G1 X136.763 Y168.305 E19.6565
G1 X132.800 Y164.596 E19.9273
G1 X130.803 Y161.796 E20.0989
G1 X129.057 Y158.287 E20.2945
G1 X127.811 Y153.710 E20.5311
G1 X127.536 Y148.517 E20.7906
G1 X128.125 Y144.631 E20.9866
G1 X129.308 Y141.059 E21.1744
G1 X131.306 Y137.402 E21.3823
G1 X133.435 Y134.705 E21.5537
G0 F6000 X133.700 Y135.004
G1 F900 X137.312 Y131.801 E21.7946
G1 X138.786 Y130.890 E21.8810
G1 X141.774 Y129.397 E22.0477
G1 X143.487 Y128.783 E22.1384
G1 X145.829 Y128.234 E22.2584
G1 X148.286 Y127.914 E22.3821
G1 X150.677 Y127.865 E22.5014
G1 X152.756 Y128.021 E22.6054
G1 X155.204 Y128.443 E22.7293
G1 X157.185 Y129.000 E22.8320
G1 X159.130 Y129.798 E22.9369
G1 X161.650 Y131.132 E23.0791
G1 X162.765 Y131.844 E23.1451
G1 X166.564 Y135.292 E23.4011
G1 X168.815 Y138.343 E23.5902
G1 X170.562 Y141.839 E23.7852
G1 X171.796 Y146.349 E24.0185
G1 X172.057 Y151.426 E24.2721
G1 X171.282 Y156.004 E24.5038
G1 X169.513 Y160.513 E24.7454
G1 X168.233 Y162.613 E24.8681
G1 X167.496 Y163.648 E24.9315
G1 X164.239 Y166.968 E25.1635
G1 X161.300 Y169.060 E25.3435
G1 X158.809 Y170.340 E25.4832
G1 X156.518 Y171.212 E25.6055
G1 X154.431 Y171.726 E25.7128
G1 X152.321 Y172.028 E25.8191
G1 X150.718 Y172.090 E25.8991
G1 X150.003 Y172.052 E25.9349
G1 X149.412 Y172.087 E25.9644
G1 X148.605 Y172.078 E26.0047
G1 X144.653 Y171.528 E26.2037
G1 X142.760 Y170.982 E26.3020
G1 X140.800 Y170.161 E26.4080
G1 X138.189 Y168.768 E26.5557
G1 X136.984 Y167.971 E26.6278
G1 X133.074 Y164.304 E26.8952
G1 X131.161 Y161.617 E27.0598
G1 X129.443 Y158.181 E27.2514
G1 X128.210 Y153.688 E27.4839
G1 X127.932 Y148.576 E27.7393
G1 X128.505 Y144.756 E27.9320
G1 X129.659 Y141.250 E28.1161
G1 X131.620 Y137.649 E28.3207
G1 X133.700 Y135.004 E28.4886
G0 F6000 X133.966 Y135.303
G1 F900 X137.522 Y132.141 E28.7260
G1 X138.965 Y131.248 E28.8106
G1 X141.909 Y129.774 E28.9749
G1 X143.622 Y129.160 E29.0657
G1 X145.881 Y128.631 E29.1814
G1 X148.295 Y128.314 E29.3029
G1 X150.647 Y128.264 E29.4203
G1 X152.688 Y128.415 E29.5224
G1 X155.096 Y128.828 E29.6443
G1 X157.033 Y129.370 E29.7446
G1 X158.943 Y130.152 E29.8476
G1 X161.463 Y131.486 E29.9898
G1 X162.550 Y132.181 E30.0542
G1 X166.243 Y135.530 E30.3029
G1 X168.458 Y138.522 E30.4887
G1 X170.176 Y141.945 E30.6797
G1 X171.410 Y146.455 E30.9130
G1 X171.662 Y151.360 E31.1580
G1 X170.909 Y155.858 E31.3856
G1 X169.171 Y160.305 E31.6238
G1 X167.891 Y162.405 E31.7465
G1 X167.170 Y163.416 E31.8084
G1 X163.954 Y166.688 E32.0373
G1 X161.117 Y168.704 E32.2109
G1 X158.626 Y169.984 E32.3507
G1 X156.376 Y170.838 E32.4707
G1 X154.336 Y171.337 E32.5755
G1 X152.265 Y171.632 E32.6799
G1 X150.703 Y171.690 E32.7579
G1 X150.001 Y171.652 E32.7929
G1 X149.416 Y171.687 E32.8222
G1 X148.609 Y171.678 E32.8624
G1 X144.763 Y171.143 E33.0562
G1 X142.914 Y170.613 E33.1521
G1 X140.988 Y169.808 E33.2563
G1 X138.410 Y168.434 E33.4020
G1 X137.205 Y167.637 E33.4741
G1 X133.399 Y164.071 E33.7343
G1 X131.518 Y161.438 E33.8957
G1 X129.829 Y158.074 E34.0835
G1 X128.609 Y153.666 E34.3117
G1 X128.328 Y148.635 E34.5631
G1 X128.885 Y144.880 E34.7525
G1 X130.010 Y141.441 E34.9330
G1 X131.971 Y137.840 E35.1376
G1 X133.966 Y135.303 E35.2986
G0 F6000 X134.232 Y135.602
G1 F900 X137.733 Y132.481 E35.5326
G1 X139.144 Y131.606 E35.6154
G1 X142.044 Y130.151 E35.7773
G1 X143.757 Y129.537 E35.8681
G1 X145.934 Y129.028 E35.9796
G1 X148.304 Y128.714 E36.0989
G1 X150.617 Y128.663 E36.2143
G1 X152.658 Y128.814 E36.3164
G1 X154.989 Y129.213 E36.4344
G1 X156.882 Y129.740 E36.5324
G1 X158.756 Y130.506 E36.6334
G1 X161.276 Y131.840 E36.7757
G1 X162.334 Y132.518 E36.8384
G1 X165.922 Y135.769 E37.0799
G1 X168.101 Y138.702 E37.2622
G1 X169.790 Y142.051 E37.4494
G1 X171.011 Y146.476 E37.6784
G1 X171.267 Y151.294 E37.9191
G1 X170.514 Y155.792 E38.1466
G1 X168.829 Y160.097 E38.3773
G1 X167.565 Y162.173 E38.4985
G1 X166.844 Y163.184 E38.5605
G1 X163.722 Y166.362 E38.7827
G1 X160.934 Y168.348 E38.9535
G1 X158.484 Y169.610 E39.0910
G1 X156.281 Y170.449 E39.2086
G1 X154.241 Y170.948 E39.3134
G1 X152.250 Y171.232 E39.4137
G1 X150.688 Y171.290 E39.4917
G1 X149.999 Y171.252 E39.5261
G1 X149.420 Y171.287 E39.5551
G1 X148.613 Y171.278 E39.5953
G1 X144.873 Y170.758 E39.7837
G1 X143.024 Y170.228 E39.8797
G1 X141.176 Y169.455 E39.9796
G1 X138.631 Y168.100 E40.1235
G1 X137.426 Y167.303 E40.1955
G1 X133.724 Y163.838 E40.4485
G1 X131.875 Y161.258 E40.6069
G1 X130.215 Y157.967 E40.7908
G1 X128.995 Y153.559 E41.0189
G1 X128.724 Y148.694 E41.2620
G1 X129.281 Y144.939 E41.4514
G1 X130.390 Y141.566 E41.6286
G1 X132.286 Y138.087 E41.8262
G1 X134.232 Y135.602 E41.9837
G0 F6000 X134.499 Y135.900
G1 F900 X137.944 Y132.821 E42.2142
G1 X139.324 Y131.963 E42.2953
G1 X142.180 Y130.527 E42.4548
G1 X143.848 Y129.926 E42.5432
G1 X145.987 Y129.425 E42.6528
G1 X148.357 Y129.111 E42.7721
G1 X150.588 Y129.062 E42.8834
G1 X152.591 Y129.208 E42.9836
G1 X154.882 Y129.598 E43.0996
G1 X156.731 Y130.110 E43.1953
G1 X158.569 Y130.860 E43.2943
G1 X161.060 Y132.177 E43.4349
G1 X162.118 Y132.855 E43.4976
G1 X165.653 Y136.065 E43.7358
G1 X167.744 Y138.883 E43.9109
G1 X169.404 Y142.157 E44.0940
G1 X170.625 Y146.582 E44.3230
G1 X170.872 Y151.228 E44.5552
G1 X170.119 Y155.726 E44.7827
G1 X168.487 Y159.889 E45.0058
G1 X167.239 Y161.941 E45.1256
G1 X166.518 Y162.952 E45.1875
G1 X163.437 Y166.081 E45.4066
G1 X160.751 Y167.992 E45.5711
G1 X158.301 Y169.254 E45.7086
G1 X156.139 Y170.075 E45.8240
G1 X154.147 Y170.559 E45.9262
G1 X152.194 Y170.836 E46.0246
G1 X150.674 Y170.890 E46.1005
G1 X149.997 Y170.852 E46.1343
G1 X149.424 Y170.887 E46.1630
G1 X148.617 Y170.878 E46.2033
G1 X144.983 Y170.373 E46.3863
G1 X143.178 Y169.859 E46.4799
G1 X141.364 Y169.102 E46.5780
G1 X138.852 Y167.766 E46.7199
G1 X137.647 Y166.969 E46.7920
G1 X134.049 Y163.604 E47.0378
G1 X132.232 Y161.077 E47.1931
G1 X130.600 Y157.860 E47.3730
G1 X129.394 Y153.536 E47.5970
G1 X129.120 Y148.753 E47.8360
G1 X129.677 Y144.998 E48.0254
G1 X130.770 Y141.692 E48.1991
G1 X132.637 Y138.279 E48.3932
G1 X134.499 Y135.900 E48.5439
G0 F6000 X134.766 Y136.198
G1 F900 X138.156 Y133.160 E48.7710
G1 X139.504 Y132.320 E48.8503
G1 X142.316 Y130.903 E49.0074
G1 X143.939 Y130.315 E49.0935
G1 X146.040 Y129.822 E49.2012
G1 X148.410 Y129.508 E49.3204
G1 X150.559 Y129.461 E49.4277
G1 X152.524 Y129.602 E49.5260
G1 X154.776 Y129.984 E49.6399
G1 X156.580 Y130.481 E49.7333
G1 X158.382 Y131.214 E49.8303
G1 X160.844 Y132.514 E49.9692
G1 X161.902 Y133.192 E50.0319
G1 X165.384 Y136.361 E50.2668
G1 X167.388 Y139.065 E50.4347
G1 X169.019 Y142.264 E50.6139
G1 X170.226 Y146.603 E50.8386
G1 X170.473 Y151.249 E51.0707
G1 X169.746 Y155.581 E51.2898
G1 X168.145 Y159.681 E51.5094
G1 X166.913 Y161.709 E51.6278
G1 X166.192 Y162.720 E51.6898
G1 X163.152 Y165.800 E51.9057
G1 X160.568 Y167.636 E52.0638
G1 X158.118 Y168.898 E52.2013
G1 X155.997 Y169.701 E52.3144
G1 X154.053 Y170.170 E52.4142
G1 X152.180 Y170.436 E52.5086
G1 X150.660 Y170.490 E52.5845
G1 X149.995 Y170.452 E52.6177
G1 X149.428 Y170.487 E52.6460
G1 X148.621 Y170.478 E52.6863
G1 X145.092 Y169.988 E52.8641
G1 X143.332 Y169.490 E52.9553
G1 X141.552 Y168.749 E53.0515
G1 X139.073 Y167.432 E53.1916
G1 X137.868 Y166.635 E53.2636
G1 X134.323 Y163.312 E53.5060
G1 X132.588 Y160.895 E53.6545
G1 X130.985 Y157.752 E53.8305
G1 X129.793 Y153.512 E54.0502
G1 X129.516 Y148.812 E54.2851
G1 X130.073 Y145.057 E54.4745
G1 X131.150 Y141.818 E54.6448
G1 X132.988 Y138.472 E54.8353
G1 X134.766 Y136.198 E54.9793
G0 F6000 X135.033 Y136.496
G1 F900 X138.368 Y133.499 E55.2030
G1 X139.684 Y132.677 E55.2804
G1 X142.453 Y131.279 E55.4351
G1 X144.031 Y130.704 E55.5189
G1 X146.093 Y130.218 E55.6246
G1 X148.419 Y129.908 E55.7417
G1 X150.530 Y129.860 E55.8470
G1 X152.495 Y130.001 E55.9453
G1 X154.670 Y130.370 E56.0554
G1 X156.474 Y130.867 E56.1487
G1 X158.195 Y131.568 E56.2415
G1 X160.657 Y132.868 E56.3804
G1 X161.686 Y133.529 E56.4414
G1 X165.063 Y136.600 E56.6691
G1 X167.032 Y139.247 E56.8337
G1 X168.634 Y142.372 E57.0089
G1 X169.827 Y146.625 E57.2293
G1 X170.078 Y151.184 E57.4571
G1 X169.373 Y155.436 E57.6721
G1 X167.803 Y159.473 E57.8882
G1 X166.586 Y161.478 E58.0052
G1 X165.907 Y162.439 E58.0639
G1 X162.867 Y165.519 E58.2798
G1 X160.385 Y167.280 E58.4316
G1 X157.935 Y168.542 E58.5691
G1 X155.856 Y169.327 E58.6800
G1 X153.996 Y169.774 E58.7754
G1 X152.166 Y170.036 E58.8677
G1 X150.646 Y170.090 E58.9436
G1 X149.993 Y170.052 E58.9762
G1 X149.432 Y170.087 E59.0042
G1 X148.625 Y170.078 E59.0445
G1 X145.201 Y169.603 E59.2170
G1 X143.441 Y169.105 E59.3082
G1 X141.740 Y168.396 E59.4001
G1 X139.294 Y167.098 E59.5383
G1 X138.089 Y166.301 E59.6104
G1 X134.648 Y163.078 E59.8456
G1 X132.944 Y160.713 E59.9910
G1 X131.370 Y157.643 E60.1631
G1 X130.192 Y153.488 E60.3786
G1 X129.912 Y148.871 E60.6094
G1 X130.469 Y145.116 E60.7988
G1 X131.529 Y141.945 E60.9656
G1 X133.304 Y138.718 E61.1493
G1 X135.033 Y136.496 E61.2898
G0 F6000 X135.301 Y136.793
G1 F900 X138.580 Y133.838 E61.5100
G1 X139.865 Y133.034 E61.5856
G1 X142.590 Y131.655 E61.7380
G1 X144.168 Y131.080 E61.8218
G1 X146.146 Y130.614 E61.9232
G1 X148.428 Y130.308 E62.0380
G1 X150.502 Y130.259 E62.1415
G1 X152.428 Y130.395 E62.2378
G1 X154.564 Y130.756 E62.3459
G1 X156.368 Y131.253 E62.4393
G1 X158.008 Y131.922 E62.5276
G1 X160.441 Y133.205 E62.6649
G1 X161.470 Y133.866 E62.7259
G1 X164.742 Y136.839 E62.9464
G1 X166.676 Y139.430 E63.1078
G1 X168.249 Y142.481 E63.2790
G1 X169.428 Y146.648 E63.4951
G1 X169.683 Y151.119 E63.7185
G1 X169.000 Y155.291 E63.9294
G1 X167.430 Y159.328 E64.1455
G1 X166.259 Y161.247 E64.2577
G1 X165.580 Y162.208 E64.3164
G1 X162.583 Y165.238 E64.5290
G1 X160.201 Y166.925 E64.6746
G1 X157.794 Y168.168 E64.8098
G1 X155.715 Y168.953 E64.9206
G1 X153.939 Y169.378 E65.0117
G1 X152.152 Y169.636 E65.1018
G1 X150.632 Y169.690 E65.1777
G1 X149.992 Y169.652 E65.2097
G1 X149.436 Y169.687 E65.2375
G1 X148.629 Y169.678 E65.2777
G1 X145.310 Y169.218 E65.4449
G1 X143.550 Y168.720 E65.5362
G1 X141.927 Y168.043 E65.6239
G1 X139.515 Y166.764 E65.7601
G1 X138.310 Y165.967 E65.8322
G1 X134.972 Y162.844 E66.0602
G1 X133.300 Y160.530 E66.2027
G1 X131.755 Y157.533 E66.3709
G1 X130.591 Y153.463 E66.5821
G1 X130.308 Y148.929 E66.8087
G1 X130.848 Y145.243 E66.9946
G1 X131.908 Y142.072 E67.1614
G1 X133.620 Y138.963 E67.3385
G1 X135.301 Y136.793 E67.4754
G0 F6000 X135.569 Y137.090
G1 F900 X138.792 Y134.177 E67.6921
G1 X140.046 Y133.391 E67.7660
G1 X142.727 Y132.031 E67.9160
G1 X144.305 Y131.456 E67.9997
G1 X146.199 Y131.010 E68.0968
